; generated by PrusaSlicer 2.4.0+win64 on 2022-02-16 at 05:21:53 UTC

; 

; external perimeters extrusion width = 0.60mm
; perimeters extrusion width = 0.60mm
; infill extrusion width = 0.60mm
; solid infill extrusion width = 0.60mm
; top infill extrusion width = 0.60mm
; first layer extrusion width = 0.60mm

; external perimeters extrusion width = 0.60mm
; perimeters extrusion width = 0.60mm
; infill extrusion width = 0.60mm
; solid infill extrusion width = 0.60mm
; top infill extrusion width = 0.60mm
; first layer extrusion width = 0.60mm

; external perimeters extrusion width = 0.60mm
; perimeters extrusion width = 0.60mm
; infill extrusion width = 0.60mm
; solid infill extrusion width = 0.60mm
; top infill extrusion width = 0.60mm
; first layer extrusion width = 0.60mm

; external perimeters extrusion width = 0.60mm
; perimeters extrusion width = 0.60mm
; infill extrusion width = 0.60mm
; solid infill extrusion width = 0.60mm
; top infill extrusion width = 0.60mm
; first layer extrusion width = 0.60mm

M107
;TYPE:Custom
M104 T0 S150
M190 S100 ; wait for bed temp
M104 T0 S255 ; wait for extruder temp
;M104 T1 S255 ; wait for extruder temp
;M109 T0 S255 ; wait for extruder temp
;M109 T1 S255 ; wait for extruder temp
G28 ;Home
G29;

M109 T0 S255
pick_T0
T0

G1 X20 F3000.0 ; go outside print area
G1 Z0.3 F500
G92 E0.0
G1 Y110.0 E12 F1000.0 ; intro line
G1 Y150.0 E15 F1000.0 ; intro line
G92 E0.0
G21 ; set units to millimeters
G90 ; use absolute coordinates
M83 ; use relative distances for extrusion
M107
;LAYER_CHANGE
;Z:0.3
;HEIGHT:0.3
;
G1 Z.06 F9000
G1 E-3 F3000
G1 X120.2 Y101.4 F9000
G1 E3 F3000
;TYPE:Skirt/Brim
;WIDTH:0.6
G1 F1500
G1 X139.716 Y82.827 E1.74585
G1 X141.165 Y81.996 E.10821
G1 X142.15 Y81.856 E.06449
G1 X197.3 Y81.856 E3.57379
G1 X198.923 Y82.25 E.10821
G1 X200.184 Y83.345 E.10821
G1 X200.836 Y85.391 E.13917
G1 X200.836 Y96.55 E.72309
G1 X200.751 Y97.318 E.05009
G1 X188.651 Y151.668 E3.60817
G1 X187.809 Y153.287 E.11824
G1 X175.805 Y166.4 E1.15201
G1 X174.805 Y167.4 E.09164
G1 X173.379 Y168.269 E.10821
G1 X172.305 Y168.436 E.07042
G1 X135.595 Y168.436 E2.37885
G1 X133.973 Y168.041 E.10821
G1 X133.095 Y167.4 E.07042
G1 X131.987 Y166.287 E.1018
G1 X120.092 Y153.287 E1.14185
G1 X119.287 Y151.823 E.10821
G1 X119.165 Y150.9 E.06036
G1 X119.165 Y103.9 E3.04566
G1 X119.559 Y102.277 E.10821
G1 X120.147 Y101.473 E.06459
;WIPE_START
G1 F7200
G1 X125.36 Y96.506 E-2.85
;WIPE_END
G1 E-.15 F3000
G1 X174.263 Y93.779 F9000
G1 E3 F3000
;TYPE:Perimeter
G1 F1500
G1 X174.263 Y86.963 E.44169
G1 X195.729 Y86.963 E1.39103
G1 X195.729 Y94.979 E.51945
G1 X174.263 Y94.979 E1.39103
G1 X174.263 Y93.869 E.07193
G1 X173.727 Y94.914 F9000
G1 F1500
G1 X173.727 Y86.427 E.54999
G1 X196.265 Y86.427 E1.46045
G1 X196.265 Y95.514 E.58887
G1 X173.727 Y95.514 E1.46045
G1 X173.727 Y95.004 E.03305
G1 X173.192 Y96.05 F9000
;TYPE:External perimeter
G1 F1500
G1 X173.192 Y85.891 E.65829
G1 X196.8 Y85.891 E1.52987
G1 X196.8 Y96.05 E.65829
G1 X173.282 Y96.05 E1.52403
G1 X173.419 Y95.495 F9000
G1 E-3 F3000
G1 X194.479 Y87.123 F9000
G1 E3 F3000
;TYPE:Solid infill
;WIDTH:0.603022
G1 F1500
G1 X195.327 Y87.971 E.07816
G1 X195.327 Y88.733 E.04964
G1 X193.958 Y87.364 E.12615
G1 X193.197 Y87.364 E.04964
G1 X195.327 Y89.495 E.19635
G1 X195.327 Y90.257 E.04964
G1 X192.435 Y87.364 E.26656
G1 X191.673 Y87.364 E.04964
G1 X195.327 Y91.018 E.33676
G1 X195.327 Y91.78 E.04964
G1 X190.911 Y87.364 E.40696
G1 X190.15 Y87.364 E.04964
G1 X195.327 Y92.542 E.47717
G1 X195.327 Y93.304 E.04964
G1 X189.388 Y87.364 E.54737
G1 X188.626 Y87.364 E.04964
G1 X195.327 Y94.065 E.61757
G1 X195.327 Y94.577 E.03334
G1 X195.077 Y94.577 E.0163
G1 X187.864 Y87.364 E.66472
G1 X187.103 Y87.364 E.04964
G1 X194.315 Y94.577 E.66472
G1 X193.554 Y94.577 E.04964
G1 X186.341 Y87.364 E.66472
G1 X185.579 Y87.364 E.04964
G1 X192.792 Y94.577 E.66472
G1 X192.03 Y94.577 E.04964
G1 X184.817 Y87.364 E.66472
G1 X184.056 Y87.364 E.04964
G1 X191.268 Y94.577 E.66472
G1 X190.507 Y94.577 E.04964
G1 X183.294 Y87.364 E.66472
G1 X182.532 Y87.364 E.04964
G1 X189.745 Y94.577 E.66472
G1 X188.983 Y94.577 E.04964
G1 X181.77 Y87.364 E.66472
G1 X181.009 Y87.364 E.04964
G1 X188.221 Y94.577 E.66472
G1 X187.46 Y94.577 E.04964
G1 X180.247 Y87.364 E.66472
G1 X179.485 Y87.364 E.04964
G1 X186.698 Y94.577 E.66472
G1 X185.936 Y94.577 E.04964
G1 X178.723 Y87.364 E.66472
G1 X177.962 Y87.364 E.04964
G1 X185.174 Y94.577 E.66472
G1 X184.413 Y94.577 E.04964
G1 X177.2 Y87.364 E.66472
G1 X176.438 Y87.364 E.04964
G1 X183.651 Y94.577 E.66472
G1 X182.889 Y94.577 E.04964
G1 X175.676 Y87.364 E.66472
G1 X174.915 Y87.364 E.04964
G1 X182.127 Y94.577 E.66472
G1 X181.366 Y94.577 E.04964
G1 X174.665 Y87.876 E.61756
G1 X174.665 Y88.638 E.04964
G1 X180.604 Y94.577 E.54736
G1 X179.842 Y94.577 E.04964
G1 X174.665 Y89.399 E.47715
G1 X174.665 Y90.161 E.04964
G1 X179.08 Y94.577 E.40695
G1 X178.319 Y94.577 E.04964
G1 X174.665 Y90.923 E.33675
G1 X174.665 Y91.685 E.04964
G1 X177.557 Y94.577 E.26655
G1 X176.795 Y94.577 E.04964
G1 X174.665 Y92.447 E.19634
G1 X174.665 Y93.208 E.04964
G1 X176.033 Y94.577 E.12614
G1 X175.272 Y94.577 E.04964
G1 X174.424 Y93.729 E.07815
;WIPE_START
G1 F7200
G1 X175.272 Y94.577 E-.47469
G1 X176.033 Y94.577 E-.30153
G1 X174.665 Y93.208 E-.76619
G1 X174.665 Y92.447 E-.30153
G1 X176.462 Y94.244 E-1.00606
;WIPE_END
G1 E-.15 F3000
G1 X163.629 Y94.979 F9000
G1 E3 F3000
;TYPE:Perimeter
;WIDTH:0.6
G1 F1500
G1 X143.363 Y94.979 E1.31327
G1 X143.363 Y86.963 E.51945
G1 X164.829 Y86.963 E1.39103
G1 X164.829 Y94.979 E.51945
G1 X163.719 Y94.979 E.07193
G1 X164.765 Y95.514 F9000
G1 F1500
G1 X142.827 Y95.514 E1.42157
G1 X142.827 Y86.427 E.58887
G1 X165.365 Y86.427 E1.46045
G1 X165.365 Y95.514 E.58887
G1 X164.855 Y95.514 E.03305
G1 X165.9 Y96.05 F9000
;TYPE:External perimeter
G1 F1500
G1 X142.292 Y96.05 E1.52987
G1 X142.292 Y85.891 E.65829
G1 X165.9 Y85.891 E1.52987
G1 X165.9 Y95.96 E.65246
G1 X165.306 Y95.969 F9000
G1 E-3 F3000
G1 X163.579 Y87.123 F9000
G1 E3 F3000
;TYPE:Solid infill
;WIDTH:0.603022
G1 F1500
G1 X164.427 Y87.971 E.07816
G1 X164.427 Y88.733 E.04964
G1 X163.058 Y87.364 E.12615
G1 X162.297 Y87.364 E.04964
G1 X164.427 Y89.495 E.19635
G1 X164.427 Y90.257 E.04964
G1 X161.535 Y87.364 E.26656
G1 X160.773 Y87.364 E.04964
G1 X164.427 Y91.018 E.33676
G1 X164.427 Y91.78 E.04964
G1 X160.011 Y87.364 E.40696
G1 X159.25 Y87.364 E.04964
G1 X164.427 Y92.542 E.47717
G1 X164.427 Y93.304 E.04964
G1 X158.488 Y87.364 E.54737
G1 X157.726 Y87.364 E.04964
G1 X164.427 Y94.065 E.61757
G1 X164.427 Y94.577 E.03334
G1 X164.177 Y94.577 E.0163
G1 X156.964 Y87.364 E.66472
G1 X156.203 Y87.364 E.04964
G1 X163.415 Y94.577 E.66472
G1 X162.654 Y94.577 E.04964
G1 X155.441 Y87.364 E.66472
G1 X154.679 Y87.364 E.04964
G1 X161.892 Y94.577 E.66472
G1 X161.13 Y94.577 E.04964
G1 X153.917 Y87.364 E.66472
G1 X153.156 Y87.364 E.04964
G1 X160.368 Y94.577 E.66472
G1 X159.607 Y94.577 E.04964
G1 X152.394 Y87.364 E.66472
G1 X151.632 Y87.364 E.04964
G1 X158.845 Y94.577 E.66472
G1 X158.083 Y94.577 E.04964
G1 X150.87 Y87.364 E.66472
G1 X150.109 Y87.364 E.04964
G1 X157.321 Y94.577 E.66472
G1 X156.56 Y94.577 E.04964
G1 X149.347 Y87.364 E.66472
G1 X148.585 Y87.364 E.04964
G1 X155.798 Y94.577 E.66472
G1 X155.036 Y94.577 E.04964
G1 X147.823 Y87.364 E.66472
G1 X147.062 Y87.364 E.04964
G1 X154.274 Y94.577 E.66472
G1 X153.513 Y94.577 E.04964
G1 X146.3 Y87.364 E.66472
G1 X145.538 Y87.364 E.04964
G1 X152.751 Y94.577 E.66472
G1 X151.989 Y94.577 E.04964
G1 X144.776 Y87.364 E.66472
G1 X144.015 Y87.364 E.04964
G1 X151.227 Y94.577 E.66472
G1 X150.466 Y94.577 E.04964
G1 X143.765 Y87.876 E.61756
G1 X143.765 Y88.638 E.04964
G1 X149.704 Y94.577 E.54736
G1 X148.942 Y94.577 E.04964
G1 X143.765 Y89.399 E.47715
G1 X143.765 Y90.161 E.04964
G1 X148.18 Y94.577 E.40695
G1 X147.419 Y94.577 E.04964
G1 X143.765 Y90.923 E.33675
G1 X143.765 Y91.685 E.04964
G1 X146.657 Y94.577 E.26655
G1 X145.895 Y94.577 E.04964
G1 X143.765 Y92.447 E.19634
G1 X143.765 Y93.208 E.04964
G1 X145.133 Y94.577 E.12614
G1 X144.372 Y94.577 E.04964
G1 X143.524 Y93.729 E.07815
;WIPE_START
G1 F7200
G1 X144.372 Y94.577 E-.47469
G1 X145.133 Y94.577 E-.30153
G1 X143.765 Y93.208 E-.76619
G1 X143.765 Y92.447 E-.30153
G1 X145.562 Y94.244 E-1.00606
;WIPE_END
G1 E-.15 F3000
G1 X153.045 Y144.788 F9000
G1 E3 F3000
;TYPE:External perimeter
;WIDTH:0.6
G1 F1500
G1 X153.475 Y144.751 E.02798
G1 X153.964 Y144.788 E.03179
G1 X154.412 Y144.908 E.03007
G1 X154.831 Y145.103 E.02995
G1 X155.21 Y145.368 E.02996
G1 X155.537 Y145.695 E.02996
G1 X155.802 Y146.074 E.02995
G1 X155.984 Y146.465 E.02798
G1 X156.117 Y146.938 E.03179
G1 X156.157 Y147.4 E.03007
G1 X156.117 Y147.86 E.02996
G1 X155.997 Y148.307 E.02995
G1 X155.802 Y148.726 E.02996
G1 X155.537 Y149.105 E.02995
G1 X155.21 Y149.431 E.02996
G1 X154.831 Y149.697 E.02996
G1 X154.412 Y149.892 E.02995
G1 X153.966 Y150.012 E.02995
G1 X153.505 Y150.052 E.02996
G1 X153.045 Y150.012 E.02996
G1 X152.598 Y149.892 E.02995
G1 X152.179 Y149.697 E.02995
G1 X151.801 Y149.431 E.02996
G1 X151.474 Y149.105 E.02995
G1 X151.209 Y148.726 E.02995
G1 X151.013 Y148.307 E.02995
G1 X150.894 Y147.86 E.02995
G1 X150.853 Y147.4 E.02996
G1 X150.894 Y146.939 E.02996
G1 X151.013 Y146.493 E.02995
G1 X151.209 Y146.074 E.02995
G1 X151.474 Y145.695 E.02995
G1 X151.801 Y145.368 E.02995
G1 X152.179 Y145.103 E.02996
G1 X152.598 Y144.908 E.02995
G1 X152.958 Y144.812 E.02412
G1 X153.192 Y144.383 F9000
G1 E-3 F3000
G1 X139.312 Y146.939 F9000
G1 E3 F3000
G1 F1500
G1 X139.352 Y147.4 E.02996
G1 X139.312 Y147.86 E.02996
G1 X139.192 Y148.307 E.02995
G1 X138.997 Y148.726 E.02996
G1 X138.732 Y149.105 E.02995
G1 X138.405 Y149.431 E.02996
G1 X138.026 Y149.697 E.02995
G1 X137.607 Y149.892 E.02996
G1 X137.161 Y150.012 E.02995
G1 X136.7 Y150.052 E.02996
G1 X136.24 Y150.012 E.02996
G1 X135.793 Y149.892 E.02995
G1 X135.374 Y149.697 E.02996
G1 X134.996 Y149.431 E.02995
G1 X134.669 Y149.105 E.02995
G1 X134.404 Y148.726 E.02995
G1 X134.208 Y148.307 E.02996
G1 X134.089 Y147.86 E.02995
G1 X134.048 Y147.4 E.02996
G1 X134.089 Y146.939 E.02996
G1 X134.208 Y146.493 E.02995
G1 X134.404 Y146.074 E.02996
G1 X134.669 Y145.695 E.02995
G1 X134.996 Y145.368 E.02995
G1 X135.374 Y145.103 E.02996
G1 X135.793 Y144.908 E.02995
G1 X136.24 Y144.788 E.02995
G1 X136.67 Y144.751 E.02798
G1 X137.159 Y144.788 E.03179
G1 X137.607 Y144.908 E.03007
G1 X138.026 Y145.103 E.02996
G1 X138.405 Y145.368 E.02995
G1 X138.732 Y145.695 E.02996
G1 X138.997 Y146.074 E.02995
G1 X139.192 Y146.493 E.02996
G1 X139.289 Y146.852 E.02412
G1 X139.746 Y147.097 F9000
G1 E-3 F3000
G1 X139.582 Y146.774 F9000
G1 X139.479 Y146.389
G1 X139.261 Y145.922
G1 X138.965 Y145.499
G1 X138.601 Y145.135
G1 X138.179 Y144.839
G1 X137.711 Y144.622
G1 X137.214 Y144.488
G1 X136.7 Y144.443
G1 X136.187 Y144.488
G1 X135.689 Y144.622
G1 X131.632 Y146.183
G1 X131.33 Y146.156
G1 E3 F3000
G1 F1500
G1 X131.312 Y146.36 E.01329
G1 X131.192 Y146.807 E.02995
G1 X130.997 Y147.226 E.02996
G1 X130.732 Y147.605 E.02995
G1 X130.405 Y147.931 E.02996
G1 X130.026 Y148.197 E.02995
G1 X129.607 Y148.392 E.02995
G1 X129.161 Y148.512 E.02995
G1 X128.7 Y148.552 E.02996
G1 X128.24 Y148.512 E.02996
G1 X127.793 Y148.392 E.02995
G1 X127.374 Y148.197 E.02996
G1 X126.996 Y147.931 E.02995
G1 X126.669 Y147.605 E.02995
G1 X126.404 Y147.226 E.02995
G1 X126.208 Y146.807 E.02996
G1 X126.089 Y146.36 E.02995
G1 X126.048 Y145.9 E.02996
G1 X126.089 Y145.439 E.02996
G1 X126.208 Y144.993 E.02995
G1 X126.404 Y144.574 E.02996
G1 X126.669 Y144.195 E.02995
G1 X126.996 Y143.868 E.02995
G1 X127.374 Y143.603 E.02996
G1 X127.793 Y143.408 E.02995
G1 X128.24 Y143.288 E.02995
G1 X128.67 Y143.251 E.02798
G1 X129.159 Y143.288 E.03179
G1 X129.607 Y143.408 E.03007
G1 X130.026 Y143.603 E.02996
G1 X130.405 Y143.868 E.02995
G1 X130.732 Y144.195 E.02996
G1 X130.997 Y144.574 E.02995
G1 X131.192 Y144.993 E.02996
G1 X131.312 Y145.439 E.02995
G1 X131.352 Y145.9 E.02996
G1 X131.338 Y146.066 E.01083
G1 X131.502 Y146.267 F9000
G1 E-3 F3000
G1 X128.7 Y111.552 F9000
G1 E3 F3000
G1 F1500
G1 X128.24 Y111.512 E.02996
G1 X127.793 Y111.392 E.02995
G1 X127.402 Y111.209 E.02798
G1 X126.997 Y110.933 E.03179
G1 X126.669 Y110.605 E.03007
G1 X126.404 Y110.226 E.02995
G1 X126.208 Y109.807 E.02996
G1 X126.089 Y109.36 E.02995
G1 X126.048 Y108.9 E.02995
G1 X126.089 Y108.439 E.02996
G1 X126.208 Y107.993 E.02995
G1 X126.404 Y107.574 E.02995
G1 X126.669 Y107.195 E.02995
G1 X126.996 Y106.868 E.02995
G1 X127.374 Y106.603 E.02995
G1 X127.793 Y106.408 E.02996
G1 X128.24 Y106.288 E.02995
G1 X128.67 Y106.251 E.02798
G1 X129.159 Y106.288 E.03179
G1 X129.607 Y106.408 E.03007
G1 X130.026 Y106.603 E.02996
G1 X130.405 Y106.868 E.02995
G1 X130.732 Y107.195 E.02996
G1 X130.997 Y107.574 E.02995
G1 X131.192 Y107.993 E.02996
G1 X131.312 Y108.439 E.02995
G1 X131.352 Y108.9 E.02996
G1 X131.312 Y109.36 E.02995
G1 X131.192 Y109.807 E.02995
G1 X130.997 Y110.226 E.02996
G1 X130.732 Y110.605 E.02995
G1 X130.405 Y110.931 E.02996
G1 X130.026 Y111.197 E.02995
G1 X129.607 Y111.392 E.02996
G1 X129.161 Y111.512 E.02995
G1 X128.79 Y111.544 E.02412
G1 X128.469 Y111.952 F9000
G1 E-3 F3000
G1 X177.821 Y144.785 F9000
G1 E3 F3000
;TYPE:Perimeter
G1 F1500
G1 X178.15 Y144.457 E.03014
G1 X178.605 Y144.138 E.03603
G1 X179.109 Y143.903 E.03603
G1 X179.646 Y143.759 E.03603
G1 X180.167 Y143.713 E.03385
G1 X180.749 Y143.758 E.03787
G1 X181.291 Y143.903 E.03634
G1 X181.795 Y144.138 E.03603
G1 X182.25 Y144.457 E.03603
G1 X182.644 Y144.85 E.03603
G1 X182.962 Y145.305 E.03603
G1 X183.197 Y145.809 E.03603
G1 X183.341 Y146.346 E.03603
G1 X183.39 Y146.9 E.03603
G1 X183.341 Y147.454 E.03603
G1 X183.197 Y147.991 E.03603
G1 X182.962 Y148.495 E.03603
G1 X182.644 Y148.95 E.03603
G1 X182.25 Y149.343 E.03603
G1 X181.795 Y149.662 E.03603
G1 X181.291 Y149.897 E.03603
G1 X180.754 Y150.041 E.03603
G1 X180.2 Y150.089 E.03603
G1 X179.646 Y150.041 E.03603
G1 X179.109 Y149.897 E.03603
G1 X178.605 Y149.662 E.03603
G1 X178.15 Y149.343 E.03603
G1 X177.757 Y148.95 E.03603
G1 X177.438 Y148.495 E.03603
G1 X177.203 Y147.991 E.03603
G1 X177.059 Y147.454 E.03603
G1 X177.011 Y146.9 E.03603
G1 X177.059 Y146.346 E.03603
G1 X177.203 Y145.809 E.03603
G1 X177.438 Y145.305 E.03603
G1 X177.757 Y144.849 E.03608
G1 X177.904 Y145.574 F9000
;TYPE:External perimeter
G1 F1500
G1 X178.169 Y145.195 E.02995
G1 X178.496 Y144.868 E.02996
G1 X178.874 Y144.603 E.02995
G1 X179.293 Y144.408 E.02995
G1 X179.74 Y144.288 E.02995
G1 X180.17 Y144.251 E.02798
G1 X180.659 Y144.288 E.03179
G1 X181.107 Y144.408 E.03007
G1 X181.526 Y144.603 E.02996
G1 X181.905 Y144.868 E.02995
G1 X182.232 Y145.195 E.02996
G1 X182.497 Y145.574 E.02995
G1 X182.692 Y145.993 E.02995
G1 X182.812 Y146.439 E.02996
G1 X182.852 Y146.9 E.02995
G1 X182.812 Y147.36 E.02996
G1 X182.692 Y147.807 E.02995
G1 X182.497 Y148.226 E.02996
G1 X182.232 Y148.605 E.02995
G1 X181.905 Y148.931 E.02996
G1 X181.526 Y149.197 E.02995
G1 X181.107 Y149.392 E.02995
G1 X180.661 Y149.512 E.02995
G1 X180.2 Y149.552 E.02996
G1 X179.74 Y149.512 E.02996
G1 X179.293 Y149.392 E.02995
G1 X178.874 Y149.197 E.02996
G1 X178.496 Y148.931 E.02995
G1 X178.169 Y148.605 E.02996
G1 X177.904 Y148.226 E.02995
G1 X177.708 Y147.807 E.02995
G1 X177.589 Y147.36 E.02995
G1 X177.548 Y146.9 E.02996
G1 X177.589 Y146.439 E.02996
G1 X177.708 Y145.993 E.02995
G1 X177.866 Y145.656 E.02412
G1 X177.672 Y145.174 F9000
G1 E-3 F3000
G1 X177.59 Y145.527 F9000
G1 X177.64 Y145.422
G1 X177.935 Y144.999
G1 X178.3 Y144.635
G1 X178.722 Y144.339
G1 X179.189 Y144.122
G1 X179.687 Y143.988
G1 X180.2 Y143.943
G1 X180.714 Y143.988
G1 X181.211 Y144.122
G1 X181.679 Y144.339
G1 X182.101 Y144.635
G1 X182.465 Y144.999
G1 X182.728 Y145.441
G1 X182.868 Y145.929
G1 X183.629 Y148.868
G1 E3 F3000
;TYPE:Perimeter
G1 F1500
G1 X183.629 Y150.329 E.09462
G1 X182.169 Y150.329 E.09462
G1 X182.098 Y150.104 E.01527
G1 X182.596 Y149.755 E.03941
G1 X183.055 Y149.296 E.0421
G1 X183.404 Y148.798 E.03941
G1 X183.543 Y148.841 E.00944
G1 E-3 F3000
G1 X183.404 Y106.002 F9000
G1 E3 F3000
G1 F1500
G1 X183.055 Y105.504 E.03941
G1 X182.596 Y105.045 E.0421
G1 X182.098 Y104.696 E.03941
G1 X182.169 Y104.471 E.01527
G1 X183.629 Y104.471 E.09462
