; generated by SuperSlicer 2.3.57 on 2022-02-17 at 05:03:38 UTC

; 

; external perimeters extrusion width = 0.60mm
; perimeters extrusion width = 0.60mm
; infill extrusion width = 0.60mm
; solid infill extrusion width = 0.60mm
; top infill extrusion width = 0.60mm
; first layer extrusion width = 0.60mm


;TYPE:Custom
M104 T0 S150
M190 S100 ; wait for bed temp
M104 T0 S255 ; wait for extruder temp
;M104 T1 S255 ; wait for extruder temp
;M109 T0 S255 ; wait for extruder temp
;M109 T1 S255 ; wait for extruder temp
G28 ;Home
G29;

M109 T0 S255
pick_T0
T0

G1 X20 F3000.0 ; go outside print area
G1 Z0.3 F500
G92 E0.0
G1 Y110.0 E12 F1000.0 ; intro line
G1 Y150.0 E15 F1000.0 ; intro line
G92 E0.0
M107
G21 ; set units to millimeters
G90 ; use absolute coordinates
M83 ; use relative distances for extrusion
M107
;LAYER_CHANGE
;Z:0.3
;HEIGHT:0.3
;
G1 Z0.1 F9000
G1 E-3 F3000
G1 X138.202 Y120.504 F9000
G1 E3 F3000
;TYPE:Skirt
;WIDTH:0.78
G1 F1500
G1 X137.661 Y121.492 E0.09752
G1 X137.29 Y123.957 E0.21586
G1 X137.297 Y126.223 E0.19614
G1 X137.572 Y128.203 E0.17308
G1 X138.135 Y129.409 E0.11525
G1 X139.501 Y130.812 E0.16952
G1 X140.411 Y131.389 E0.09327
G1 X141.457 Y131.647 E0.09327
G1 X178.282 Y131.658 E3.18826
G1 X179.062 Y131.564 E0.06804
G1 X179.811 Y131.284 E0.06921
G1 X180.473 Y130.836 E0.06921
G1 X181.7 Y129.615 E0.1499
G1 X182.205 Y128.839 E0.08009
G1 X182.46 Y128.058 E0.07116
G1 X182.694 Y126.332 E0.15083
G1 X182.705 Y123.8 E0.21922
G1 X182.397 Y121.679 E0.18555
G1 X181.771 Y120.469 E0.11794
G1 X180.02 Y118.833 E0.2075
G1 X179.18 Y118.467 E0.07932
G1 X178.277 Y118.342 E0.07893
G1 X141.719 Y118.342 E3.16516
G1 X140.938 Y118.436 E0.06804
G1 X140.133 Y118.745 E0.07466
G1 X139.437 Y119.246 E0.07427
G1 X138.265 Y120.439 E0.14481
;WIPE_START
G1 F7200
G1 X137.661 Y121.492 E-0.48025
G1 X137.29 Y123.957 E-0.98692
G1 X137.297 Y126.223 E-0.89675
G1 X137.466 Y127.439 E-0.48608
;WIPE_END
G1 E-0.15 F3000
G1 X145.788 Y123.071 F9000
G1 E3 F3000
;TYPE:Internal perimeter
;WIDTH:0.6
G1 F1500
G1 X157.407 Y123.071 E0.75293
G1 X157.015 Y123.913 E0.06021
G1 X156.871 Y124.448 E0.03589
G1 X156.823 Y125 E0.03589
G1 X156.871 Y125.552 E0.03589
G1 X157.015 Y126.087 E0.03589
G1 X157.407 Y126.929 E0.06021
G1 X145.788 Y126.929 E0.75293
G1 X146.181 Y126.087 E0.06021
G1 X146.324 Y125.552 E0.03589
G1 X146.372 Y125 E0.03589
G1 X146.324 Y124.448 E0.03589
G1 X146.181 Y123.913 E0.03589
G1 X145.826 Y123.153 E0.05438
G1 X144.45 Y122.536 F9000
G1 F1500
G1 X158.746 Y122.536 E0.92642
G1 X157.978 Y123.303 E0.07035
G1 X157.714 Y123.68 E0.02982
G1 X157.52 Y124.097 E0.02982
G1 X157.401 Y124.542 E0.02982
G1 X157.361 Y125 E0.02982
G1 X157.401 Y125.458 E0.02982
G1 X157.52 Y125.903 E0.02982
G1 X157.714 Y126.32 E0.02982
G1 X157.978 Y126.697 E0.02982
G1 X158.746 Y127.464 E0.07035
G1 X144.45 Y127.464 E0.92642
G1 X145.217 Y126.697 E0.07035
G1 X145.481 Y126.32 E0.02982
G1 X145.676 Y125.903 E0.02982
G1 X145.795 Y125.458 E0.02982
G1 X145.835 Y125 E0.02982
G1 X145.795 Y124.542 E0.02982
G1 X145.676 Y124.097 E0.02982
G1 X145.481 Y123.68 E0.02982
G1 X145.217 Y123.303 E0.02982
G1 X144.513 Y122.599 E0.06452
G1 X162.593 Y123.071 F9000
G1 F1500
G1 X174.212 Y123.071 E0.75293
G1 X173.82 Y123.913 E0.06021
G1 X173.676 Y124.448 E0.03589
G1 X173.628 Y125 E0.03589
G1 X173.676 Y125.552 E0.03589
G1 X173.82 Y126.087 E0.03589
G1 X174.212 Y126.929 E0.06021
G1 X162.593 Y126.929 E0.75293
G1 X162.986 Y126.087 E0.06021
G1 X163.129 Y125.552 E0.03589
G1 X163.177 Y125 E0.03589
G1 X163.129 Y124.448 E0.03589
G1 X162.986 Y123.913 E0.03589
G1 X162.631 Y123.153 E0.05438
G1 X161.255 Y122.536 F9000
G1 F1500
G1 X175.551 Y122.536 E0.92642
G1 X174.783 Y123.303 E0.07035
G1 X174.519 Y123.68 E0.02981
G1 X174.325 Y124.097 E0.02982
G1 X174.206 Y124.542 E0.02982
G1 X174.166 Y125 E0.02982
G1 X174.206 Y125.458 E0.02982
G1 X174.325 Y125.903 E0.02982
G1 X174.519 Y126.32 E0.02982
G1 X174.783 Y126.697 E0.02982
G1 X175.551 Y127.464 E0.07035
G1 X161.255 Y127.464 E0.92642
G1 X162.022 Y126.697 E0.07035
G1 X162.286 Y126.32 E0.02982
G1 X162.481 Y125.903 E0.02982
G1 X162.6 Y125.458 E0.02982
G1 X162.64 Y125 E0.02982
G1 X162.6 Y124.542 E0.02982
G1 X162.481 Y124.097 E0.02982
G1 X162.286 Y123.68 E0.02982
G1 X162.022 Y123.303 E0.02982
G1 X161.318 Y122.599 E0.06452
G1 X161.051 Y123.18 F9000
;TYPE:External perimeter
G1 F1500
G1 X160.719 Y123.025 E0.02374
G1 X160.365 Y122.93 E0.02374
G1 X160 Y122.898 E0.02374
G1 X159.635 Y122.93 E0.02374
G1 X159.281 Y123.025 E0.02374
G1 X158.949 Y123.18 E0.02374
G1 X158.649 Y123.39 E0.02374
G1 X158.39 Y123.649 E0.02374
G1 X158.18 Y123.949 E0.02374
G1 X158.025 Y124.281 E0.02374
G1 X157.93 Y124.635 E0.02374
G1 X157.898 Y125 E0.02374
G1 X157.93 Y125.365 E0.02374
G1 X158.025 Y125.719 E0.02374
G1 X158.18 Y126.051 E0.02374
G1 X158.39 Y126.351 E0.02374
G1 X158.649 Y126.61 E0.02374
G1 X158.949 Y126.82 E0.02374
G1 X159.281 Y126.975 E0.02374
G1 X159.635 Y127.07 E0.02374
G1 X160 Y127.102 E0.02374
G1 X160.365 Y127.07 E0.02374
G1 X160.719 Y126.975 E0.02374
G1 X161.051 Y126.82 E0.02374
G1 X161.351 Y126.61 E0.02374
G1 X161.61 Y126.351 E0.02374
G1 X161.821 Y126.051 E0.02374
G1 X161.975 Y125.719 E0.02374
G1 X162.07 Y125.365 E0.02374
G1 X162.102 Y125 E0.02374
G1 X162.07 Y124.635 E0.02374
G1 X161.975 Y124.281 E0.02374
G1 X161.821 Y123.949 E0.02374
G1 X161.61 Y123.649 E0.02374
G1 X161.351 Y123.39 E0.02374
G1 X161.125 Y123.231 E0.01791
;WIPE_START
G1 X161.041 Y122.813 F9000
;WIPE_END
G1 X145.265 Y124.635
G1 F1500
G1 X145.17 Y124.281 E0.02374
G1 X145.016 Y123.949 E0.02374
G1 X144.805 Y123.649 E0.02374
G1 X144.546 Y123.39 E0.02374
G1 X144.246 Y123.18 E0.02374
G1 X143.914 Y123.025 E0.02374
G1 X143.56 Y122.93 E0.02375
G1 X143.195 Y122.898 E0.02378
G1 X142.828 Y122.932 E0.02386
G1 X142.47 Y123.033 E0.02413
G1 X142.136 Y123.208 E0.02443
G1 X141.845 Y123.457 E0.0248
G1 X141.629 Y123.774 E0.02486
G1 X141.517 Y124.086 E0.02145
G1 X141.407 Y124.357 E0.01899
G1 X141.323 Y124.67 E0.02097
G1 X141.294 Y125 E0.02147
G1 X141.323 Y125.33 E0.02147
G1 X141.407 Y125.643 E0.02097
G1 X141.517 Y125.914 E0.01899
G1 X141.629 Y126.226 E0.02145
G1 X141.845 Y126.543 E0.02486
G1 X142.136 Y126.791 E0.0248
G1 X142.47 Y126.967 E0.02443
G1 X142.828 Y127.068 E0.02413
G1 X143.195 Y127.102 E0.02386
G1 X143.56 Y127.07 E0.02378
G1 X143.914 Y126.975 E0.02375
G1 X144.246 Y126.82 E0.02374
G1 X144.546 Y126.61 E0.02374
G1 X144.805 Y126.351 E0.02374
G1 X145.016 Y126.051 E0.02374
G1 X145.17 Y125.719 E0.02374
G1 X145.265 Y125.365 E0.02374
G1 X145.297 Y125 E0.02374
G1 X145.273 Y124.725 E0.01791
;WIPE_START
G1 X145.539 Y124.391 F9000
;WIPE_END
;WIPE_START
G1 F7200
G1 X145.453 Y124.178 E-0.09098
G1 X145.276 Y123.798 E-0.16581
G1 X145.036 Y123.455 E-0.16581
G1 X144.74 Y123.159 E-0.16581
G1 X144.397 Y122.919 E-0.16581
G1 X144.017 Y122.742 E-0.16582
G1 X143.612 Y122.633 E-0.16588
G1 X143.194 Y122.597 E-0.16628
G1 X142.773 Y122.636 E-0.16727
G1 X142.358 Y122.753 E-0.17078
G1 X141.966 Y122.959 E-0.17501
G1 X141.62 Y123.255 E-0.18061
G1 X141.359 Y123.637 E-0.18283
G1 X141.236 Y123.979 E-0.14381
G1 X141.122 Y124.262 E-0.12091
G1 X141.026 Y124.617 E-0.14584
G1 X140.993 Y125 E-0.15195
G1 X141.026 Y125.382 E-0.15195
G1 X141.031 Y125.399 E-0.00684
;WIPE_END
G1 E-0.15 F3000
G1 X174.703 Y125 F9000
G1 E3 F3000
G1 F1500
G1 X174.735 Y125.365 E0.02374
G1 X174.83 Y125.719 E0.02374
G1 X174.985 Y126.051 E0.02374
G1 X175.195 Y126.351 E0.02374
G1 X175.454 Y126.61 E0.02374
G1 X175.754 Y126.82 E0.02374
G1 X176.086 Y126.975 E0.02374
G1 X176.44 Y127.07 E0.02375
G1 X176.806 Y127.102 E0.02378
G1 X177.173 Y127.068 E0.02386
G1 X177.531 Y126.967 E0.02413
G1 X177.865 Y126.791 E0.02443
G1 X178.156 Y126.543 E0.0248
G1 X178.372 Y126.226 E0.02486
G1 X178.484 Y125.914 E0.02145
G1 X178.594 Y125.643 E0.01899
G1 X178.677 Y125.33 E0.02097
G1 X178.706 Y125 E0.02147
G1 X178.677 Y124.67 E0.02147
G1 X178.594 Y124.357 E0.02097
G1 X178.484 Y124.086 E0.01899
G1 X178.372 Y123.774 E0.02145
G1 X178.156 Y123.457 E0.02486
G1 X177.865 Y123.208 E0.0248
G1 X177.531 Y123.033 E0.02443
G1 X177.173 Y122.932 E0.02413
G1 X176.806 Y122.898 E0.02386
G1 X176.44 Y122.93 E0.02378
G1 X176.086 Y123.025 E0.02375
G1 X175.754 Y123.18 E0.02374
G1 X175.454 Y123.39 E0.02374
G1 X175.195 Y123.649 E0.02374
G1 X174.985 Y123.949 E0.02374
G1 X174.83 Y124.281 E0.02374
G1 X174.735 Y124.635 E0.02374
G1 X174.711 Y124.91 E0.01791
;WIPE_START
G1 X174.391 Y125.192 F9000
;WIPE_END
;WIPE_START
G1 F7200
G1 X174.439 Y125.417 E-0.09098
G1 X174.547 Y125.822 E-0.16581
G1 X174.724 Y126.201 E-0.16581
G1 X174.964 Y126.545 E-0.1658
G1 X175.261 Y126.841 E-0.16581
G1 X175.604 Y127.081 E-0.16581
G1 X175.983 Y127.258 E-0.16582
G1 X176.388 Y127.366 E-0.16588
G1 X176.807 Y127.403 E-0.16628
G1 X177.227 Y127.364 E-0.16727
G1 X177.643 Y127.247 E-0.17078
G1 X178.034 Y127.041 E-0.17501
G1 X178.381 Y126.745 E-0.18061
G1 X178.641 Y126.363 E-0.18283
G1 X178.764 Y126.021 E-0.14381
G1 X178.879 Y125.738 E-0.12091
G1 X178.974 Y125.382 E-0.14584
G1 X179.006 Y125.018 E-0.14494
;WIPE_END
G1 E-0.15 F3000
G1 X178.148 Y128 F9000
G1 E3 F3000
G1 F1500
G1 X141.852 Y128 E2.35201
G1 X141.665 Y127.813 E0.01713
G1 X141.331 Y127.479 E0.03064
G1 X141.129 Y127.281 E0.01828
G1 X141.113 Y126.971 E0.0201
G1 X141.041 Y126.451 E0.03408
G1 X140.947 Y125.97 E0.03171
G1 X140.945 Y125.499 E0.03052
G1 X140.945 Y124.501 E0.06471
G1 X140.947 Y124.03 E0.03052
G1 X141.041 Y123.549 E0.03171
G1 X141.113 Y123.028 E0.03408
G1 X141.129 Y122.719 E0.0201
G1 X141.331 Y122.521 E0.01828
G1 X141.665 Y122.187 E0.03064
G1 X141.852 Y122 E0.01713
G1 X178.148 Y122 E2.35201
G1 X178.335 Y122.187 E0.01713
G1 X178.67 Y122.521 E0.03064
G1 X178.871 Y122.719 E0.01828
G1 X178.887 Y123.028 E0.0201
G1 X178.959 Y123.549 E0.03408
G1 X179.053 Y124.03 E0.03171
G1 X179.055 Y124.501 E0.03052
G1 X179.055 Y125.499 E0.06471
G1 X179.053 Y125.97 E0.03052
G1 X178.959 Y126.451 E0.03171
G1 X178.887 Y126.971 E0.03408
G1 X178.871 Y127.281 E0.0201
G1 X178.67 Y127.479 E0.01828
G1 X178.335 Y127.813 E0.03064
G1 X178.212 Y127.936 E0.0113
;WIPE_START
G1 X177.724 Y127.576 F9000
;WIPE_END
G1 X178.708 Y126.176
;TYPE:Gap fill
;WIDTH:0.186971
G1 F1500
G1 X178.657 Y126.362 E0.00286
G1 X178.642 Y126.4 E0.00061
;WIDTH:0.239666
G1 X178.579 Y126.563 E0.0037
;WIDTH:0.339401
G1 X178.516 Y126.726 E0.00581
;WIDTH:0.419781
G1 X178.464 Y126.853 E0.00591
;WIDTH:0.477682
G1 X178.418 Y126.937 E0.00477
;WIDTH:0.562913
G1 X178.362 Y127.052 E0.00774
;WIDTH:0.616392
G1 X178.3 Y127.108 E0.00553
G1 X178.188 Y127.212 E0.01025
G1 X178.138 Y127.253 E0.00428
G1 X178.023 Y127.337 E0.00952
;WIDTH:0.728757
G1 X177.909 Y127.422 E0.01146
;WIDTH:0.692092
G1 X177.76 Y127.458 E0.01162
;WIDTH:0.643795
G1 X177.7 Y127.47 E0.00431
G1 X177.489 Y127.499 E0.01489
;WIDTH:0.515627
G1 X177.279 Y127.528 E0.0116
G1 X177.238 Y127.532 E0.00225
G1 X177.031 Y127.541 E0.01128
;WIDTH:0.470315
G1 X176.825 Y127.551 E0.01015
G1 X176.789 Y127.551 E0.00177
G1 X176.584 Y127.542 E0.01009
;WIDTH:0.505813
G1 X176.378 Y127.533 E0.01097
G1 X176.284 Y127.522 E0.00506
G1 X176.157 Y127.449 E0.00784
;WIDTH:0.408439
G1 X176.03 Y127.376 E0.00611
;WIDTH:0.335981
G1 X175.946 Y127.326 E0.0032
G1 X175.861 Y127.267 E0.00342
;WIDTH:0.278703
G1 X175.776 Y127.207 E0.0027
;WIDTH:0.230568
G1 X175.691 Y127.147 E0.00209
;WIDTH:0.181397
G1 X175.551 Y127.048 E0.00243
G1 X173.637 Y123.976 F9000
;TYPE:Solid infill
;WIDTH:0.587641
G1 F1500
G1 X173.123 Y123.462 E0.0461
G1 X172.365 Y123.462 E0.04807
G1 X173.289 Y124.386 E0.08291
G1 X173.236 Y125 E0.03912
G1 X173.244 Y125.098 E0.00627
G1 X171.608 Y123.462 E0.14685
G1 X170.85 Y123.462 E0.04807
G1 X173.393 Y126.004 E0.22819
G1 X173.451 Y126.221 E0.01422
G1 X173.599 Y126.538 E0.02219
G1 X173.169 Y126.538 E0.02729
G1 X170.093 Y123.462 E0.27605
G1 X169.336 Y123.462 E0.04807
G1 X172.411 Y126.538 E0.27605
G1 X171.654 Y126.538 E0.04807
G1 X168.578 Y123.462 E0.27605
G1 X167.821 Y123.462 E0.04807
G1 X170.896 Y126.538 E0.27605
G1 X170.139 Y126.538 E0.04807
G1 X167.063 Y123.462 E0.27605
G1 X166.306 Y123.462 E0.04807
G1 X169.381 Y126.538 E0.27605
G1 X168.624 Y126.538 E0.04807
G1 X165.548 Y123.462 E0.27605
G1 X164.791 Y123.462 E0.04807
G1 X167.866 Y126.538 E0.27605
G1 X167.109 Y126.538 E0.04807
G1 X164.033 Y123.462 E0.27605
G1 X163.276 Y123.462 E0.04807
G1 X166.351 Y126.538 E0.27605
G1 X165.594 Y126.538 E0.04807
G1 X163.523 Y124.467 E0.18584
G1 X163.57 Y125 E0.03394
G1 X163.548 Y125.249 E0.0159
G1 X164.836 Y126.538 E0.11562
G1 X164.079 Y126.538 E0.04807
G1 X163.441 Y125.9 E0.05727
G1 X163.355 Y126.221 E0.02111
G1 X163.243 Y126.46 E0.01672
G1 X163.552 Y126.768 E0.02768
G1 X161.255 Y127.048 F9000
;TYPE:Gap fill
;WIDTH:0.179771
G1 F1500
G1 X161.2 Y127.088 E0.00095
G1 X161.115 Y127.147 E0.00145
;WIDTH:0.230558
G1 X161.029 Y127.207 E0.00209
;WIDTH:0.278689
G1 X160.944 Y127.267 E0.00269
;WIDTH:0.327827
G1 X160.839 Y127.339 E0.00407
;WIDTH:0.360923
G1 X160.712 Y127.412 E0.00527
;WIDTH:0.455893
G1 X160.585 Y127.486 E0.00695
;WIDTH:0.530265
G1 X160.427 Y127.533 E0.00926
G1 X160.223 Y127.542 E0.01155
;WIDTH:0.470083
G1 X160.018 Y127.551 E0.01006
G1 X159.983 Y127.551 E0.00174
G1 X159.778 Y127.542 E0.01006
;WIDTH:0.505837
G1 X159.573 Y127.533 E0.01094
G1 X159.479 Y127.522 E0.00504
G1 X159.352 Y127.449 E0.00784
;WIDTH:0.40841
G1 X159.225 Y127.376 E0.00611
;WIDTH:0.335958
G1 X159.141 Y127.326 E0.0032
G1 X159.056 Y127.267 E0.00342
;WIDTH:0.278691
G1 X158.971 Y127.207 E0.0027
;WIDTH:0.230561
G1 X158.886 Y127.147 E0.00209
;WIDTH:0.181388
G1 X158.746 Y127.048 E0.00243
G1 X156.832 Y123.976 F9000
;TYPE:Solid infill
;WIDTH:0.587641
G1 F1500
G1 X156.318 Y123.462 E0.0461
G1 X155.56 Y123.462 E0.04807
G1 X156.484 Y124.386 E0.08291
G1 X156.431 Y125 E0.03912
G1 X156.439 Y125.098 E0.00627
G1 X154.803 Y123.462 E0.14685
G1 X154.045 Y123.462 E0.04807
G1 X156.588 Y126.004 E0.22819
G1 X156.646 Y126.221 E0.01422
G1 X156.794 Y126.538 E0.02219
G1 X156.364 Y126.538 E0.02729
G1 X153.288 Y123.462 E0.27605
G1 X152.531 Y123.462 E0.04807
G1 X155.606 Y126.538 E0.27605
G1 X154.849 Y126.538 E0.04807
G1 X151.773 Y123.462 E0.27605
G1 X151.016 Y123.462 E0.04807
G1 X154.091 Y126.538 E0.27605
G1 X153.334 Y126.538 E0.04807
G1 X150.258 Y123.462 E0.27605
G1 X149.501 Y123.462 E0.04807
G1 X152.576 Y126.538 E0.27605
G1 X151.819 Y126.538 E0.04807
G1 X148.743 Y123.462 E0.27605
G1 X147.986 Y123.462 E0.04807
G1 X151.061 Y126.538 E0.27605
G1 X150.304 Y126.538 E0.04807
G1 X147.228 Y123.462 E0.27605
G1 X146.471 Y123.462 E0.04807
G1 X149.546 Y126.538 E0.27605
G1 X148.789 Y126.538 E0.04807
G1 X146.718 Y124.467 E0.18583
G1 X146.765 Y125 E0.03394
G1 X146.743 Y125.249 E0.0159
G1 X148.031 Y126.538 E0.11562
G1 X147.274 Y126.538 E0.04807
G1 X146.636 Y125.9 E0.05727
G1 X146.55 Y126.221 E0.02111
G1 X146.438 Y126.46 E0.01672
G1 X146.747 Y126.768 E0.02768
G1 X144.45 Y127.048 F9000
;TYPE:Gap fill
;WIDTH:0.17978
G1 F1500
G1 X144.395 Y127.088 E0.00095
G1 X144.309 Y127.147 E0.00145
;WIDTH:0.230566
G1 X144.224 Y127.207 E0.00209
;WIDTH:0.278701
G1 X144.139 Y127.267 E0.0027
;WIDTH:0.327844
G1 X144.034 Y127.339 E0.00407
;WIDTH:0.360949
G1 X143.907 Y127.412 E0.00527
;WIDTH:0.455925
G1 X143.78 Y127.486 E0.00695
;WIDTH:0.530267
G1 X143.622 Y127.533 E0.00928
G1 X143.417 Y127.542 E0.01158
;WIDTH:0.470229
G1 X143.211 Y127.551 E0.01009
G1 X143.175 Y127.551 E0.00177
G1 X142.969 Y127.541 E0.01015
;WIDTH:0.508065
G1 X142.763 Y127.532 E0.01109
G1 X142.722 Y127.528 E0.00221
G1 X142.511 Y127.499 E0.0114
;WIDTH:0.632165
G1 X142.301 Y127.47 E0.01459
G1 X142.24 Y127.458 E0.00422
;WIDTH:0.692092
G1 X142.092 Y127.422 E0.01162
;WIDTH:0.728757
G1 X141.977 Y127.337 E0.01146
;WIDTH:0.643278
G1 X141.862 Y127.253 E0.00998
G1 X141.813 Y127.212 E0.00449
G1 X141.698 Y127.106 E0.01092
G1 X141.639 Y127.052 E0.00562
;WIDTH:0.554922
G1 X141.573 Y126.918 E0.00883
;WIDTH:0.453928
G1 X141.516 Y126.807 E0.0059
;WIDTH:0.389267
G1 X141.453 Y126.644 E0.00686
;WIDTH:0.289533
G1 X141.39 Y126.481 E0.00476
;WIDTH:0.212236
G1 X141.344 Y126.362 E0.00229
G1 X141.293 Y126.176 E0.00345
G1 X141.293 Y123.824 F9000
;WIDTH:0.212236
G1 F1500
G1 X141.344 Y123.638 E0.00345
G1 X141.39 Y123.519 E0.00229
;WIDTH:0.289533
G1 X141.453 Y123.356 E0.00476
;WIDTH:0.389266
G1 X141.516 Y123.193 E0.00686
;WIDTH:0.453927
