; generated by SuperSlicer 2.3.57 on 2022-02-17 at 04:04:23 UTC

; 

; external perimeters extrusion width = 0.60mm
; perimeters extrusion width = 0.60mm
; infill extrusion width = 0.60mm
; solid infill extrusion width = 0.60mm
; top infill extrusion width = 0.60mm
; first layer extrusion width = 0.60mm


;TYPE:Custom
M104 T0 S150
M190 S100 ; wait for bed temp
M104 T0 S255 ; wait for extruder temp
;M104 T1 S255 ; wait for extruder temp
;M109 T0 S255 ; wait for extruder temp
;M109 T1 S255 ; wait for extruder temp
G28 ;Home
G29;

M109 T0 S255
pick_T0
T0

G1 X20 F3000.0 ; go outside print area
G1 Z0.3 F500
G92 E0.0
G1 Y110.0 E12 F1000.0 ; intro line
G1 Y150.0 E15 F1000.0 ; intro line
G92 E0.0
M107
G21 ; set units to millimeters
G90 ; use absolute coordinates
M83 ; use relative distances for extrusion
M107
;LAYER_CHANGE
;Z:0.3
;HEIGHT:0.3
;
G1 Z0.1 F9000
G1 E-3 F3000
G1 X145.27 Y118.037 F9000
G1 E3 F3000
;TYPE:Skirt
;WIDTH:0.78
G1 F1500
G1 X144.888 Y118.78 E0.07232
G1 X144.701 Y119.594 E0.07232
G1 X144.686 Y130.124 E0.9117
G1 X144.809 Y130.918 E0.0696
G1 X145.118 Y131.661 E0.0696
G1 X145.607 Y132.321 E0.07116
G1 X146.455 Y133.066 E0.09773
G1 X147.246 Y133.443 E0.07582
G1 X148.107 Y133.603 E0.07582
G1 X172.305 Y133.607 E2.09505
G1 X173.128 Y133.491 E0.07193
G1 X173.901 Y133.174 E0.07232
G1 X174.535 Y132.71 E0.06804
G1 X175.042 Y132.116 E0.06765
G1 X175.399 Y131.416 E0.06804
G1 X175.583 Y130.656 E0.06765
G1 X175.592 Y119.365 E0.97754
G1 X175.251 Y118.185 E0.1064
G1 X174.508 Y117.206 E0.1064
G1 X173.463 Y116.56 E0.1064
G1 X172.255 Y116.334 E0.1064
G1 X148.226 Y116.334 E2.08034
G1 X147.399 Y116.452 E0.07232
G1 X146.631 Y116.768 E0.07193
G1 X145.993 Y117.235 E0.06843
G1 X145.331 Y117.97 E0.08568
;WIPE_START
G1 F7200
G1 X144.888 Y118.78 E-0.36521
G1 X144.701 Y119.594 E-0.33066
G1 X144.693 Y125.036 E-2.15414
;WIPE_END
G1 E-0.15 F3000
G1 X149.413 Y121.063 F9000
G1 E3 F3000
;TYPE:Internal perimeter
;WIDTH:0.6
G1 F1500
G1 X170.879 Y121.063 E1.39103
G1 X170.879 Y128.879 E0.50649
G1 X149.413 Y128.879 E1.39103
G1 X149.413 Y121.153 E0.50066
G1 X148.877 Y120.527 F9000
G1 F1500
G1 X171.415 Y120.527 E1.46045
G1 X171.415 Y129.414 E0.57591
G1 X148.877 Y129.414 E1.46045
G1 X148.877 Y120.617 E0.57008
G1 X148.342 Y120.057 F9000
;TYPE:External perimeter
G1 F1500
G1 X148.407 Y119.991 E0.00602
G1 X171.95 Y119.991 E1.52561
G1 X171.95 Y129.95 E0.64533
G1 X148.407 Y129.95 E1.52561
G1 X148.342 Y129.884 E0.00602
G1 X148.342 Y120.147 E0.63098
;WIPE_START
G1 X148.435 Y120.057 F9000
;WIPE_END
G1 X170.718 Y122.306
;TYPE:Solid infill
;WIDTH:0.594165
G1 F1500
G1 X169.866 Y121.454 E0.07736
G1 X169.108 Y121.454 E0.04861
G1 X170.488 Y122.833 E0.1252
G1 X170.488 Y123.591 E0.04861
G1 X168.351 Y121.454 E0.19394
G1 X167.593 Y121.454 E0.04861
G1 X170.488 Y124.348 E0.26268
G1 X170.488 Y125.106 E0.04861
G1 X166.836 Y121.454 E0.33143
G1 X166.079 Y121.454 E0.04861
G1 X170.488 Y125.863 E0.40017
G1 X170.488 Y126.621 E0.04861
G1 X165.321 Y121.454 E0.46891
G1 X164.564 Y121.454 E0.04861
G1 X170.488 Y127.378 E0.53765
G1 X170.488 Y128.135 E0.04861
G1 X163.806 Y121.454 E0.6064
G1 X163.049 Y121.454 E0.04861
G1 X170.083 Y128.488 E0.63836
G1 X169.325 Y128.488 E0.04861
G1 X162.291 Y121.454 E0.63836
G1 X161.534 Y121.454 E0.04861
G1 X168.568 Y128.488 E0.63836
G1 X167.81 Y128.488 E0.04861
G1 X160.776 Y121.454 E0.63836
G1 X160.019 Y121.454 E0.04861
G1 X167.053 Y128.488 E0.63836
G1 X166.295 Y128.488 E0.04861
G1 X159.261 Y121.454 E0.63836
G1 X158.504 Y121.454 E0.04861
G1 X165.538 Y128.488 E0.63836
G1 X164.78 Y128.488 E0.04861
G1 X157.746 Y121.454 E0.63836
G1 X156.989 Y121.454 E0.04861
G1 X164.023 Y128.488 E0.63836
G1 X163.265 Y128.488 E0.04861
G1 X156.231 Y121.454 E0.63836
G1 X155.474 Y121.454 E0.04861
G1 X162.508 Y128.488 E0.63836
G1 X161.75 Y128.488 E0.04861
G1 X154.716 Y121.454 E0.63836
G1 X153.959 Y121.454 E0.04861
G1 X160.993 Y128.488 E0.63836
G1 X160.235 Y128.488 E0.04861
G1 X153.201 Y121.454 E0.63836
G1 X152.444 Y121.454 E0.04861
G1 X159.478 Y128.488 E0.63836
G1 X158.721 Y128.488 E0.04861
G1 X151.686 Y121.454 E0.63836
G1 X150.929 Y121.454 E0.04861
G1 X157.963 Y128.488 E0.63836
G1 X157.206 Y128.488 E0.04861
G1 X150.171 Y121.454 E0.63836
G1 X149.804 Y121.454 E0.02359
G1 X149.804 Y121.843 E0.02502
G1 X156.448 Y128.488 E0.60297
G1 X155.691 Y128.488 E0.04861
G1 X149.804 Y122.601 E0.53423
G1 X149.804 Y123.358 E0.04861
G1 X154.933 Y128.488 E0.46549
G1 X154.176 Y128.488 E0.04861
G1 X149.804 Y124.116 E0.39675
G1 X149.804 Y124.873 E0.04861
G1 X153.418 Y128.488 E0.328
G1 X152.661 Y128.488 E0.04861
G1 X149.804 Y125.631 E0.25926
G1 X149.804 Y126.388 E0.04861
G1 X151.903 Y128.488 E0.19052
G1 X151.146 Y128.488 E0.04861
G1 X149.804 Y127.146 E0.12178
G1 X149.804 Y127.903 E0.04861
G1 X150.619 Y128.718 E0.07394
;LAYER_CHANGE
;Z:0.6
;HEIGHT:0.3
;
G1 Z0.4 F9000
M104 S240 ; set temperature
M140 S105 ; set bed temperature
G1 X148.921 Y120.571
;TYPE:Internal perimeter
;WIDTH:0.6
G1 F3600
G1 X171.079 Y120.571 E1.43584
G1 X171.079 Y129.379 E0.57074
G1 X148.921 Y129.379 E1.43584
G1 X148.921 Y120.661 E0.56491
G1 X148.579 Y120.294 F9000
G1 F3600
G1 X148.838 Y120.036 E0.02372
G1 X171.615 Y120.036 E1.47597
G1 X171.615 Y129.914 E0.64016
G1 X148.846 Y129.914 E1.47541
G1 X148.386 Y129.454 E0.0422
G1 X148.386 Y120.487 E0.58103
G1 X148.515 Y120.358 E0.01187
G1 X167.468 Y120.003 F9000
G1 X172.15 Y119.916
;TYPE:External perimeter
G1 F1800
G1 X172.15 Y130.395 E0.67911
;TYPE:Overhang perimeter
;HEIGHT:0.6
G1 F2334.2723
G1 X172.15 Y130.45 E0.00621
G1 X148.624 Y130.45 E2.68251
G1 X147.85 Y129.676 E0.12485
G1 X147.85 Y120.266 E1.07298
G1 X148.045 Y120.071 E0.03135
G1 X148.616 Y119.5 E0.09212
G1 X172.15 Y119.5 E2.68349
G1 X172.15 Y119.546 E0.00524
G1 X172.15 Y119.646 E0.01146
;TYPE:External perimeter
;HEIGHT:0.3
G1 F1800
G1 X172.15 Y119.826 E0.01162
;WIPE_START
G1 X171.631 Y120.216 F9000
;WIPE_END
G1 X149.082 Y121.945
;TYPE:Solid infill
;WIDTH:0.594967
G1 F1800
G1 X150.065 Y120.962 E0.08929
G1 X150.822 Y120.962 E0.04867
G1 X149.312 Y122.472 E0.1372
G1 X149.312 Y123.229 E0.04867
G1 X151.58 Y120.962 E0.20603
G1 X152.337 Y120.962 E0.04867
G1 X149.312 Y123.987 E0.27487
G1 X149.312 Y124.744 E0.04867
G1 X153.095 Y120.962 E0.3437
G1 X153.852 Y120.962 E0.04867
G1 X149.312 Y125.502 E0.41254
G1 X149.312 Y126.259 E0.04867
G1 X154.61 Y120.962 E0.48137
G1 X155.367 Y120.962 E0.04867
G1 X149.312 Y127.017 E0.55021
G1 X149.312 Y127.774 E0.04867
G1 X156.125 Y120.962 E0.61904
G1 X156.882 Y120.962 E0.04867
G1 X149.312 Y128.532 E0.68788
G1 X149.312 Y128.988 E0.0293
G1 X149.614 Y128.988 E0.01937
G1 X157.64 Y120.962 E0.72932
G1 X158.397 Y120.962 E0.04867
G1 X150.371 Y128.988 E0.72932
G1 X151.129 Y128.988 E0.04867
G1 X159.154 Y120.962 E0.72932
G1 X159.912 Y120.962 E0.04867
G1 X151.886 Y128.988 E0.72932
G1 X152.644 Y128.988 E0.04867
G1 X160.669 Y120.962 E0.72932
G1 X161.427 Y120.962 E0.04867
G1 X153.401 Y128.988 E0.72932
G1 X154.159 Y128.988 E0.04867
G1 X162.184 Y120.962 E0.72932
G1 X162.942 Y120.962 E0.04867
G1 X154.916 Y128.988 E0.72932
G1 X155.674 Y128.988 E0.04867
G1 X163.699 Y120.962 E0.72932
G1 X164.457 Y120.962 E0.04867
G1 X156.431 Y128.988 E0.72932
G1 X157.189 Y128.988 E0.04867
G1 X165.214 Y120.962 E0.72932
G1 X165.972 Y120.962 E0.04867
G1 X157.946 Y128.988 E0.72932
G1 X158.704 Y128.988 E0.04867
G1 X166.729 Y120.962 E0.72932
G1 X167.487 Y120.962 E0.04867
G1 X159.461 Y128.988 E0.72932
G1 X160.219 Y128.988 E0.04867
G1 X168.244 Y120.962 E0.72932
G1 X169.002 Y120.962 E0.04867
G1 X160.976 Y128.988 E0.72932
G1 X161.734 Y128.988 E0.04867
G1 X169.759 Y120.962 E0.72932
G1 X170.517 Y120.962 E0.04867
G1 X162.491 Y128.988 E0.72932
G1 X163.249 Y128.988 E0.04867
G1 X170.688 Y121.548 E0.67605
G1 X170.688 Y122.306 E0.04867
G1 X164.006 Y128.988 E0.60722
G1 X164.764 Y128.988 E0.04867
G1 X170.688 Y123.063 E0.53838
G1 X170.688 Y123.821 E0.04867
G1 X165.521 Y128.988 E0.46955
G1 X166.279 Y128.988 E0.04867
G1 X170.688 Y124.578 E0.40071
G1 X170.688 Y125.336 E0.04867
G1 X167.036 Y128.988 E0.33187
G1 X167.793 Y128.988 E0.04867
G1 X170.688 Y126.093 E0.26304
G1 X170.688 Y126.851 E0.04867
G1 X168.551 Y128.988 E0.1942
G1 X169.308 Y128.988 E0.04867
G1 X170.688 Y127.608 E0.12537
G1 X170.688 Y128.366 E0.04867
G1 X169.836 Y129.218 E0.07746
;LAYER_CHANGE
;Z:0.9
;HEIGHT:0.3
;M104 S250  ; T tower floor 1
;
G1 Z0.7 F9000
G1 X148.921 Y120.571
;TYPE:Internal perimeter
;WIDTH:0.6
G1 F1654
G1 X171.079 Y120.571 E1.43584
G1 X171.079 Y129.429 E0.57398
G1 X149.118 Y129.429 E1.42309
G1 X148.921 Y129.232 E0.01803
G1 X148.921 Y120.661 E0.5554
G1 X148.579 Y120.294 F9000
G1 F1654
G1 X148.838 Y120.036 E0.02372
G1 X171.615 Y120.036 E1.47597
G1 X171.615 Y129.964 E0.6434
G1 X148.896 Y129.964 E1.47217
G1 X148.386 Y129.454 E0.04678
G1 X148.386 Y120.487 E0.58103
G1 X148.515 Y120.358 E0.01187
G1 X147.85 Y120.266 F9000
;TYPE:External perimeter
G1 F1654
G1 X148.616 Y119.5 E0.07017
G1 X172.15 Y119.5 E1.52505
G1 X172.15 Y130.5 E0.71281
G1 X148.674 Y130.5 E1.52126
G1 X147.85 Y129.676 E0.07554
G1 X147.85 Y120.356 E0.60395
;WIPE_START
G1 X148.45 Y120.266 F9000
;WIPE_END
G1 X148.506 Y120.322
G1 X170.918 Y121.815
;TYPE:Solid infill
;WIDTH:0.593696
G1 F1654
G1 X170.066 Y120.962 E0.0773
G1 X169.308 Y120.962 E0.04857
G1 X170.688 Y122.342 E0.1251
G1 X170.688 Y123.099 E0.04857
G1 X168.551 Y120.962 E0.19379
G1 X167.793 Y120.962 E0.04857
G1 X170.688 Y123.857 E0.26248
G1 X170.688 Y123.997 E0.00903
G1 X170.688 Y124.614 E0.03954
G1 X167.036 Y120.962 E0.33116
G1 X166.279 Y120.962 E0.04857
G1 X170.688 Y125.372 E0.39985
G1 X170.688 Y125.75 E0.02424
G1 X170.688 Y126.129 E0.02433
G1 X165.521 Y120.962 E0.46854
G1 X164.764 Y120.962 E0.04857
G1 X170.688 Y126.887 E0.53723
G1 X170.688 Y127.644 E0.04857
G1 X164.006 Y120.962 E0.60592
G1 X163.249 Y120.962 E0.04857
G1 X170.688 Y128.402 E0.6746
G1 X170.688 Y129.038 E0.04079
G1 X170.567 Y129.038 E0.00778
G1 X162.491 Y120.962 E0.73229
G1 X161.734 Y120.962 E0.04857
G1 X169.809 Y129.038 E0.73229
G1 X169.052 Y129.038 E0.04857
G1 X160.976 Y120.962 E0.73229
G1 X160.219 Y120.962 E0.04857
G1 X168.294 Y129.038 E0.73229
G1 X167.537 Y129.038 E0.04857
G1 X159.461 Y120.962 E0.73229
G1 X158.704 Y120.962 E0.04857
G1 X166.779 Y129.038 E0.73229
G1 X166.022 Y129.038 E0.04857
G1 X157.946 Y120.962 E0.73229
G1 X157.189 Y120.962 E0.04857
G1 X165.264 Y129.038 E0.73229
G1 X164.507 Y129.038 E0.04857
G1 X156.431 Y120.962 E0.73229
G1 X155.674 Y120.962 E0.04857
G1 X163.749 Y129.038 E0.73229
G1 X162.992 Y129.038 E0.04857
G1 X154.916 Y120.962 E0.73229
G1 X154.159 Y120.962 E0.04857
G1 X162.234 Y129.038 E0.73229
G1 X161.477 Y129.038 E0.04857
G1 X153.401 Y120.962 E0.73229
G1 X152.644 Y120.962 E0.04857
G1 X160.719 Y129.038 E0.73229
G1 X159.962 Y129.038 E0.04857
G1 X151.886 Y120.962 E0.73229
G1 X151.129 Y120.962 E0.04857
G1 X159.204 Y129.038 E0.73229
G1 X158.447 Y129.038 E0.04857
G1 X150.371 Y120.962 E0.73229
G1 X149.614 Y120.962 E0.04857
G1 X157.69 Y129.038 E0.73229
G1 X156.932 Y129.038 E0.04857
G1 X149.312 Y121.418 E0.69095
G1 X149.312 Y122.176 E0.04857
G1 X156.175 Y129.038 E0.62226
G1 X155.417 Y129.038 E0.04857
G1 X149.312 Y122.933 E0.55357
G1 X149.312 Y123.691 E0.04857
G1 X154.66 Y129.038 E0.48488
G1 X153.902 Y129.038 E0.04857
G1 X149.312 Y124.448 E0.41619
G1 X149.312 Y125.205 E0.04857
G1 X153.145 Y129.038 E0.34751
G1 X152.387 Y129.038 E0.04857
G1 X149.312 Y125.963 E0.27882
G1 X149.312 Y126.72 E0.04857
G1 X151.63 Y129.038 E0.21013
G1 X150.872 Y129.038 E0.04857
G1 X149.312 Y127.478 E0.14144
G1 X149.312 Y128.235 E0.04857
G1 X150.115 Y129.038 E0.07275
G1 X149.357 Y129.038 E0.04857
G1 X149.082 Y128.763 E0.02495
;LAYER_CHANGE
;Z:1.2
;HEIGHT:0.3
;
G1 Z1 F9000
G1 X148.921 Y120.571
;TYPE:Internal perimeter
;WIDTH:0.6
G1 F1906
G1 X166.902 Y120.571 E1.16516
G1 X167.132 Y121.016 E0.03242
G1 X168.089 Y127.8 E0.444
G1 X171.079 Y124.81 E0.27397
G1 X171.079 Y129.429 E0.29927
G1 X149.118 Y129.429 E1.42309
G1 X148.921 Y129.232 E0.01803
G1 X148.921 Y120.661 E0.5554
G1 E-3 F3000
G1 X168.47 Y126.662 F9000
G1 E3 F3000
G1 F1906
G1 X171.615 Y123.517 E0.28821
G1 X171.615 Y129.964 E0.41777
G1 X148.896 Y129.964 E1.47217
G1 X148.386 Y129.454 E0.04678
G1 X148.386 Y120.487 E0.58103
G1 X148.838 Y120.036 E0.04142
G1 X167.228 Y120.036 E1.19172
G1 X167.649 Y120.851 E0.05945
G1 X168.457 Y126.573 E0.3745
G1 E-3 F3000
G1 X148.381 Y120.447 F9000
G1 X147.85 Y120.266
G1 E3 F3000
;TYPE:External perimeter
G1 F1800
G1 X148.616 Y119.5 E0.07017
G1 X172.15 Y119.5 E1.52505
G1 X172.15 Y130.5 E0.71281
G1 X148.674 Y130.5 E1.52126
G1 X147.85 Y129.676 E0.07554
G1 X147.85 Y120.356 E0.60395
;WIPE_START
G1 X148.45 Y120.266 F9000
;WIPE_END
G1 E-3 F3000
G1 X148.506 Y120.322 F9000
G1 X166.61 Y126.111
G1 E3 F3000
;TYPE:Top solid infill
;WIDTH:0.611308
G1 F1500
G1 X167.351 Y125.37 E0.06923
G1 X167.258 Y124.706 E0.04426
G1 X166.083 Y125.881 E0.1097
G1 X165.325 Y125.881 E0.05001
G1 X167.164 Y124.042 E0.17167
G1 X167.111 Y123.667 E0.02502
G1 X167.07 Y123.378 E0.01924
G1 X164.568 Y125.881 E0.23365
G1 X163.81 Y125.881 E0.05001
G1 X166.977 Y122.715 E0.29563
G1 X166.883 Y122.051 E0.04426
G1 X163.053 Y125.881 E0.3576
G1 X162.295 Y125.881 E0.05001
G1 X166.789 Y121.387 E0.41958
G1 X166.754 Y121.136 E0.01674
G1 X166.664 Y120.962 E0.01293
G1 X166.457 Y120.962 E0.01368
G1 X161.538 Y125.881 E0.45926
G1 X160.78 Y125.881 E0.05001
G1 X165.699 Y120.962 E0.45926
G1 X164.942 Y120.962 E0.05001
G1 X160.023 Y125.881 E0.45926
G1 X159.266 Y125.881 E0.05001
G1 X164.184 Y120.962 E0.45926
G1 X163.427 Y120.962 E0.05001
G1 X158.508 Y125.881 E0.45926
G1 X157.751 Y125.881 E0.05001
G1 X162.669 Y120.962 E0.45926
G1 X161.912 Y120.962 E0.05001
G1 X156.993 Y125.881 E0.45926
G1 X156.236 Y125.881 E0.05001
G1 X161.154 Y120.962 E0.45926
G1 X160.397 Y120.962 E0.05001
G1 X155.478 Y125.881 E0.45926
G1 X154.721 Y125.881 E0.05001
G1 X159.639 Y120.962 E0.45926
G1 X158.882 Y120.962 E0.05001
G1 X153.963 Y125.881 E0.45926
G1 X153.206 Y125.881 E0.05001
G1 X158.124 Y120.962 E0.45926
G1 X157.367 Y120.962 E0.05001
G1 X152.448 Y125.881 E0.45926
G1 X151.691 Y125.881 E0.05001
G1 X156.609 Y120.962 E0.45926
G1 X155.852 Y120.962 E0.05001
G1 X151.176 Y125.638 E0.43661
G1 X150.797 Y125.26 E0.03536
G1 X155.094 Y120.962 E0.40125
G1 X154.337 Y120.962 E0.05001
G1 X150.418 Y124.881 E0.36589
G1 X150.1 Y124.563 E0.02968
G1 X150.1 Y124.441 E0.00804
G1 X153.58 Y120.962 E0.32484
G1 X152.822 Y120.962 E0.05001
G1 X150.1 Y123.684 E0.25411
G1 X150.1 Y122.926 E0.05001
G1 X152.065 Y120.962 E0.18339
G1 X151.307 Y120.962 E0.05001
G1 X150.1 Y122.169 E0.11266
G1 X150.1 Y121.411 E0.05001
G1 X150.78 Y120.732 E0.06344
G1 E-3 F3000
G1 X169.836 Y129.268 F9000
G1 E3 F3000
;TYPE:Solid infill
;WIDTH:0.643306
G1 F1800
G1 X170.688 Y128.416 E0.08376
G1 X170.688 Y127.658 E0.05263
G1 X169.308 Y129.038 E0.13555
G1 X168.551 Y129.038 E0.05263
G1 X170.688 Y126.901 E0.20998
G1 X170.688 Y126.328 E0.03976
G1 X170.484 Y126.348 E0.01427
G1 X167.793 Y129.038 E0.26432
G1 X167.036 Y129.038 E0.05263
G1 X167.766 Y128.307 E0.07175
G1 X167.672 Y127.644 E0.04658
G1 X166.279 Y129.038 E0.13697
G1 X165.521 Y129.038 E0.05263
G1 X167.579 Y126.98 E0.20219
G1 X167.496 Y126.395 E0.04104
G1 X167.406 Y126.395 E0.00625
G1 X164.764 Y129.038 E0.25966
G1 X164.006 Y129.038 E0.05263
G1 X166.649 Y126.395 E0.25966
G1 X165.891 Y126.395 E0.05263
G1 X163.249 Y129.038 E0.25966
G1 X162.491 Y129.038 E0.05263
G1 X165.134 Y126.395 E0.25966
G1 X164.376 Y126.395 E0.05263
G1 X161.734 Y129.038 E0.25966
G1 X160.976 Y129.038 E0.05263
G1 X163.619 Y126.395 E0.25966
G1 X162.861 Y126.395 E0.05263
G1 X160.219 Y129.038 E0.25966
G1 X159.461 Y129.038 E0.05263
G1 X162.104 Y126.395 E0.25966
G1 X161.346 Y126.395 E0.05263
G1 X158.704 Y129.038 E0.25966
G1 X157.946 Y129.038 E0.05263
G1 X160.589 Y126.395 E0.25966
G1 X159.831 Y126.395 E0.05263
G1 X157.189 Y129.038 E0.25966
G1 X156.431 Y129.038 E0.05263
G1 X159.074 Y126.395 E0.25966
G1 X158.316 Y126.395 E0.05263
G1 X155.674 Y129.038 E0.25966
G1 X154.916 Y129.038 E0.05263
G1 X157.559 Y126.395 E0.25966
G1 X156.801 Y126.395 E0.05263
G1 X154.159 Y129.038 E0.25966
G1 X153.401 Y129.038 E0.05263
G1 X156.044 Y126.395 E0.25966
G1 X155.287 Y126.395 E0.05263
G1 X152.644 Y129.038 E0.25966
G1 X151.886 Y129.038 E0.05263
G1 X154.529 Y126.395 E0.25966
