; generated by SuperSlicer 2.3.57 on 2022-02-19 at 00:36:15 UTC

; 

; external perimeters extrusion width = 0.60mm
; perimeters extrusion width = 0.60mm
; infill extrusion width = 0.60mm
; solid infill extrusion width = 0.60mm
; top infill extrusion width = 0.60mm
; first layer extrusion width = 0.60mm


;TYPE:Custom
M104 T0 S150
M190 S100 ; wait for bed temp
M104 T0 S255 ; wait for extruder temp
;M104 T1 S255 ; wait for extruder temp
;M109 T0 S255 ; wait for extruder temp
;M109 T1 S255 ; wait for extruder temp
G28 ;Home
G29;

M109 T0 S255
pick_T0
T0

G1 X20 F3000.0 ; go outside print area
G1 Z0.3 F500
G92 E0.0
G1 Y110.0 E12 F1000.0 ; intro line
G1 Y150.0 E15 F1000.0 ; intro line
G92 E0.0
M107
G21 ; set units to millimeters
G90 ; use absolute coordinates
M83 ; use relative distances for extrusion
M107
;LAYER_CHANGE
;Z:0.3
;HEIGHT:0.3
;
G1 Z0.1 F9000
G1 E-3 F3000
G1 X137.899 Y107.901 F9000
G1 E3 F3000
;TYPE:Skirt
;WIDTH:0.78
G1 F1500
G1 X137.537 Y108.649 E0.07193
G1 X137.37 Y109.467 E0.07232
G1 X135.697 Y136.186 E2.31785
G1 X135.693 Y153.547 E1.50311
G1 X135.913 Y155.078 E0.13383
G1 X136.47 Y156.408 E0.12491
G1 X137.213 Y157.435 E0.10973
G1 X138.959 Y159.09 E0.20826
G1 X139.81 Y159.486 E0.08126
G1 X140.742 Y159.631 E0.08165
G1 X171.646 Y159.553 E2.67562
G1 X172.501 Y159.238 E0.07893
G1 X173.24 Y158.704 E0.07893
G1 X182.101 Y149.577 E1.10133
G1 X182.464 Y148.825 E0.07232
G1 X182.631 Y148.006 E0.07232
G1 X184.297 Y120.876 E2.35329
G1 X184.292 Y103.079 E1.54088
G1 X184.077 Y102.179 E0.08009
G1 X183.621 Y101.364 E0.08091
G1 X183.014 Y100.72 E0.0766
G1 X182.259 Y100.258 E0.0766
G1 X181.091 Y99.974 E0.10409
G1 X177.279 Y99.969 E0.33001
G1 X152.217 Y100.035 E2.16985
G1 X151.344 Y100.34 E0.08009
G1 X139.1 Y106.784 E1.19786
G1 X138.431 Y107.268 E0.07154
G1 X137.957 Y107.832 E0.06375
;WIPE_START
G1 F7200
G1 X137.537 Y108.649 E-0.36352
G1 X137.37 Y109.467 E-0.33066
G1 X137.029 Y114.903 E-2.15582
;WIPE_END
G1 E-0.15 F3000
G1 X164.821 Y137.645 F9000
G1 E3 F3000
;TYPE:Internal perimeter
;WIDTH:0.6
G1 F1500
G1 X166.338 Y137.645 E0.09824
G1 X166.621 Y138.057 E0.03242
G1 X166.88 Y138.432 E0.02952
G1 X167.162 Y138.789 E0.02952
G1 X167.444 Y139.147 E0.02952
G1 X167.75 Y139.485 E0.02952
G1 X168.055 Y139.823 E0.02952
G1 X168.382 Y140.14 E0.02952
G1 X168.709 Y140.457 E0.02952
G1 X169.056 Y140.752 E0.02952
G1 X169.404 Y141.047 E0.02952
G1 X169.769 Y141.318 E0.02952
G1 X170.135 Y141.59 E0.02952
G1 X170.518 Y141.836 E0.02952
G1 X170.901 Y142.083 E0.02952
G1 X171.299 Y142.304 E0.02952
G1 X171.698 Y142.525 E0.02952
G1 X172.11 Y142.719 E0.02952
G1 X172.522 Y142.914 E0.02952
G1 X172.946 Y143.08 E0.02952
G1 X173.37 Y143.247 E0.02952
G1 X173.804 Y143.385 E0.02952
G1 X174.238 Y143.524 E0.02952
G1 X174.68 Y143.633 E0.02952
G1 X175.122 Y143.743 E0.02952
G1 X175.571 Y143.823 E0.02952
G1 X176.019 Y143.903 E0.02951
G1 X176.472 Y143.953 E0.02951
G1 X176.924 Y144.004 E0.02952
G1 X177.38 Y144.024 E0.02952
G1 X177.912 Y144.048 E0.03452
G1 X177.912 Y147.191 E0.20364
G1 X177.683 Y147.424 E0.02115
G1 X177.344 Y147.769 E0.03137
G1 X177.005 Y148.115 E0.03137
G1 X176.666 Y148.46 E0.03137
G1 X176.327 Y148.806 E0.03137
G1 X175.988 Y149.152 E0.03137
G1 X175.649 Y149.497 E0.03137
G1 X175.31 Y149.843 E0.03137
G1 X174.971 Y150.189 E0.03137
G1 X174.632 Y150.534 E0.03137
G1 X174.293 Y150.88 E0.03137
G1 X173.954 Y151.226 E0.03137
G1 X173.615 Y151.571 E0.03137
G1 X173.276 Y151.917 E0.03137
G1 X172.937 Y152.262 E0.03137
G1 X172.259 Y152.954 E0.06275
G1 X171.92 Y153.299 E0.03137
G1 X171.581 Y153.645 E0.03137
G1 X171.242 Y153.991 E0.03137
G1 X170.903 Y154.336 E0.03137
G1 X170.564 Y154.682 E0.03137
G1 X170.348 Y154.902 E0.01999
G1 X165.755 Y154.902 E0.29765
G1 X165.516 Y154.664 E0.02186
G1 X165.187 Y154.334 E0.0302
G1 X165.11 Y154.252 E0.00727
G1 X165.057 Y154.187 E0.00544
G1 X165.009 Y154.118 E0.00544
G1 X164.967 Y154.045 E0.00545
G1 X164.929 Y153.97 E0.00546
G1 X164.897 Y153.892 E0.00545
G1 X164.87 Y153.813 E0.00544
G1 X164.849 Y153.731 E0.00545
G1 X164.834 Y153.648 E0.00545
G1 X164.825 Y153.565 E0.00545
G1 X164.821 Y153.453 E0.00726
G1 X164.821 Y137.735 E1.01855
G1 X164.286 Y137.109 F9000
G1 F1500
G1 X164.834 Y137.109 E0.03551
G1 X165.312 Y137.109 E0.03097
G1 X166.645 Y137.109 E0.08639
G1 X166.736 Y137.264 E0.01164
G1 X166.817 Y137.396 E0.01002
G1 X167.062 Y137.753 E0.0281
G1 X167.311 Y138.114 E0.02837
G1 X167.582 Y138.457 E0.02837
G1 X167.854 Y138.801 E0.02837
G1 X168.147 Y139.126 E0.02837
G1 X168.441 Y139.451 E0.02838
G1 X168.755 Y139.755 E0.02838
G1 X169.069 Y140.06 E0.02837
G1 X169.403 Y140.344 E0.02837
G1 X169.737 Y140.627 E0.02837
G1 X170.089 Y140.888 E0.02837
G1 X170.44 Y141.149 E0.02837
G1 X170.808 Y141.386 E0.02838
G1 X171.176 Y141.623 E0.02837
G1 X171.559 Y141.836 E0.02837
G1 X171.942 Y142.048 E0.02838
G1 X172.338 Y142.235 E0.02837
G1 X172.734 Y142.422 E0.02837
G1 X173.142 Y142.582 E0.02837
G1 X173.549 Y142.742 E0.02837
G1 X173.966 Y142.875 E0.02837
G1 X174.384 Y143.008 E0.02838
G1 X174.809 Y143.113 E0.02838
G1 X175.234 Y143.218 E0.02838
G1 X175.665 Y143.295 E0.02837
G1 X176.096 Y143.372 E0.02837
G1 X176.531 Y143.421 E0.02837
G1 X176.966 Y143.469 E0.02838
G1 X177.404 Y143.489 E0.02838
G1 X177.827 Y143.508 E0.02746
G1 X177.997 Y143.509 E0.01102
G1 X178.447 Y143.509 E0.02918
G1 X178.447 Y147.409 E0.25275
G1 X178.066 Y147.799 E0.03533
G1 X177.727 Y148.144 E0.03137
G1 X177.388 Y148.49 E0.03137
G1 X177.049 Y148.836 E0.03137
G1 X176.71 Y149.181 E0.03137
G1 X176.371 Y149.527 E0.03137
G1 X176.031 Y149.872 E0.03137
G1 X175.692 Y150.218 E0.03137
G1 X175.353 Y150.564 E0.03137
G1 X175.014 Y150.909 E0.03137
G1 X174.675 Y151.255 E0.03137
G1 X174.336 Y151.601 E0.03137
G1 X173.997 Y151.946 E0.03137
G1 X173.658 Y152.292 E0.03137
G1 X173.319 Y152.638 E0.03137
G1 X172.641 Y153.329 E0.06275
G1 X172.302 Y153.674 E0.03137
G1 X171.963 Y154.02 E0.03137
G1 X171.624 Y154.366 E0.03137
G1 X171.285 Y154.711 E0.03137
G1 X170.946 Y155.057 E0.03137
G1 X170.573 Y155.438 E0.03457
G1 X165.533 Y155.438 E0.3266
G1 X165.137 Y155.042 E0.03624
G1 X164.801 Y154.706 E0.03082
G1 X164.705 Y154.603 E0.00913
G1 X164.628 Y154.508 E0.00792
G1 X164.559 Y154.407 E0.00792
G1 X164.496 Y154.302 E0.00793
G1 X164.441 Y154.193 E0.00793
G1 X164.395 Y154.08 E0.00792
G1 X164.356 Y153.964 E0.00792
G1 X164.326 Y153.845 E0.00793
G1 X164.304 Y153.725 E0.00793
G1 X164.291 Y153.603 E0.00793
G1 X164.286 Y153.462 E0.00912
G1 X164.286 Y137.199 E1.05388
G1 X163.75 Y136.573 F9000
;TYPE:External perimeter
G1 F1500
G1 X164.834 Y136.573 E0.07022
G1 X165.312 Y136.573 E0.03097
G1 X166.745 Y136.573 E0.0929
G1 X166.95 Y136.573 E0.01329
G1 X167.196 Y136.988 E0.03124
G1 X167.266 Y137.105 E0.00883
G1 X167.504 Y137.449 E0.0271
G1 X167.742 Y137.795 E0.02723
G1 X168.002 Y138.125 E0.02723
G1 X168.263 Y138.455 E0.02723
G1 X168.545 Y138.767 E0.02723
G1 X168.826 Y139.078 E0.02723
G1 X169.128 Y139.371 E0.02723
G1 X169.43 Y139.663 E0.02723
G1 X169.75 Y139.936 E0.02723
G1 X170.07 Y140.208 E0.02723
G1 X170.408 Y140.458 E0.02723
G1 X170.745 Y140.708 E0.02723
G1 X171.098 Y140.936 E0.02723
G1 X171.452 Y141.163 E0.02723
G1 X171.819 Y141.367 E0.02723
G1 X172.187 Y141.571 E0.02723
G1 X172.567 Y141.75 E0.02723
G1 X172.947 Y141.929 E0.02723
G1 X173.338 Y142.083 E0.02723
G1 X173.729 Y142.237 E0.02723
G1 X174.129 Y142.365 E0.02723
G1 X174.529 Y142.492 E0.02723
G1 X174.937 Y142.593 E0.02723
G1 X175.345 Y142.694 E0.02723
G1 X175.759 Y142.768 E0.02723
G1 X176.173 Y142.842 E0.02723
G1 X176.59 Y142.889 E0.02723
G1 X177.008 Y142.935 E0.02723
G1 X177.428 Y142.954 E0.02723
G1 X177.841 Y142.972 E0.02679
G1 X177.999 Y142.973 E0.01024
G1 X178.983 Y142.973 E0.06378
G1 X178.983 Y147.628 E0.30164
G1 X178.448 Y148.174 E0.04951
G1 X178.109 Y148.519 E0.03137
G1 X177.77 Y148.865 E0.03137
G1 X177.431 Y149.211 E0.03137
G1 X177.092 Y149.556 E0.03137
G1 X176.753 Y149.902 E0.03137
G1 X176.414 Y150.247 E0.03137
G1 X176.075 Y150.593 E0.03137
G1 X175.736 Y150.939 E0.03137
G1 X175.397 Y151.284 E0.03137
G1 X175.058 Y151.63 E0.03137
G1 X174.719 Y151.976 E0.03137
G1 X174.38 Y152.321 E0.03137
G1 X174.041 Y152.667 E0.03137
G1 X173.702 Y153.013 E0.03137
G1 X173.024 Y153.704 E0.06275
G1 X172.685 Y154.049 E0.03137
G1 X172.346 Y154.395 E0.03137
G1 X172.007 Y154.741 E0.03137
G1 X171.668 Y155.086 E0.03137
G1 X171.329 Y155.432 E0.03137
G1 X170.99 Y155.778 E0.03137
G1 X170.798 Y155.973 E0.01777
G1 X165.311 Y155.973 E0.35555
G1 X165.108 Y155.771 E0.0186
G1 X164.759 Y155.421 E0.03202
G1 X164.416 Y155.078 E0.03144
G1 X164.3 Y154.954 E0.01099
G1 X164.199 Y154.829 E0.0104
G1 X164.108 Y154.697 E0.01041
G1 X164.026 Y154.559 E0.01041
G1 X163.954 Y154.415 E0.01041
G1 X163.892 Y154.267 E0.0104
G1 X163.842 Y154.115 E0.0104
G1 X163.802 Y153.959 E0.01041
G1 X163.773 Y153.801 E0.01041
G1 X163.756 Y153.641 E0.01041
G1 X163.75 Y153.472 E0.01098
G1 X163.75 Y136.663 E1.08921
;WIPE_START
G1 X164.27 Y136.873 F9000
;WIPE_END
G1 X177.751 Y145.285
;TYPE:Solid infill
;WIDTH:0.594889
G1 F1500
G1 X176.855 Y144.389 E0.08143
G1 X176.002 Y144.294 E0.05511
G1 X177.521 Y145.813 E0.13796
G1 X177.521 Y146.57 E0.04867
G1 X175.083 Y144.133 E0.22146
G1 X175.041 Y144.125 E0.00278
G1 X174.131 Y143.9 E0.0602
G1 X174.075 Y143.882 E0.00377
G1 X177.374 Y147.181 E0.2997
G1 X176.999 Y147.563 E0.03441
G1 X172.93 Y143.494 E0.36973
G1 X172.367 Y143.273 E0.03885
G1 X171.58 Y142.902 E0.0559
G1 X176.624 Y147.945 E0.45829
G1 X176.249 Y148.328 E0.03441
G1 X165.956 Y138.036 E0.93517
G1 X165.212 Y138.036 E0.04779
G1 X165.212 Y138.049 E0.00087
G1 X175.873 Y148.71 E0.96868
G1 X175.498 Y149.093 E0.03441
G1 X165.212 Y138.807 E0.9346
G1 X165.212 Y139.564 E0.04867
G1 X175.123 Y149.475 E0.90052
G1 X174.748 Y149.857 E0.03441
G1 X165.212 Y140.322 E0.86644
G1 X165.212 Y141.079 E0.04867
G1 X174.373 Y150.24 E0.83236
G1 X173.998 Y150.622 E0.03441
G1 X165.212 Y141.837 E0.79828
G1 X165.212 Y142.594 E0.04867
G1 X173.623 Y151.005 E0.7642
G1 X173.248 Y151.387 E0.03441
G1 X165.212 Y143.352 E0.73012
G1 X165.212 Y144.109 E0.04867
G1 X172.873 Y151.77 E0.69604
G1 X172.498 Y152.152 E0.03441
G1 X165.212 Y144.867 E0.66196
G1 X165.212 Y145.624 E0.04867
G1 X172.123 Y152.534 E0.62788
G1 X171.748 Y152.917 E0.03441
G1 X165.212 Y146.382 E0.5938
G1 X165.212 Y147.139 E0.04867
G1 X171.373 Y153.299 E0.55972
G1 X170.997 Y153.682 E0.03441
G1 X165.212 Y147.896 E0.52564
G1 X165.212 Y148.654 E0.04867
G1 X170.622 Y154.064 E0.49156
G1 X170.247 Y154.446 E0.03441
G1 X165.212 Y149.411 E0.45748
G1 X165.212 Y150.169 E0.04867
G1 X169.555 Y154.511 E0.39455
G1 X168.797 Y154.511 E0.04867
G1 X165.212 Y150.926 E0.32572
G1 X165.212 Y151.684 E0.04867
G1 X168.04 Y154.511 E0.2569
G1 X167.282 Y154.511 E0.04867
G1 X165.212 Y152.441 E0.18807
G1 X165.212 Y153.199 E0.04867
G1 X166.755 Y154.742 E0.14017
;WIPE_START
G1 F7200
G1 X165.212 Y153.199 E-0.86358
G1 X165.212 Y152.441 E-0.29984
G1 X167.282 Y154.511 E-1.15868
G1 X168.04 Y154.511 E-0.29984
G1 X167.632 Y154.104 E-0.22808
;WIPE_END
G1 E-0.15 F3000
G1 X153.512 Y144.048 F9000
G1 E3 F3000
;TYPE:Internal perimeter
;WIDTH:0.6
G1 F1500
G1 X153.512 Y147.191 E0.20364
G1 X153.283 Y147.424 E0.02115
G1 X152.944 Y147.769 E0.03137
G1 X152.605 Y148.115 E0.03137
G1 X152.266 Y148.46 E0.03137
G1 X151.927 Y148.806 E0.03137
G1 X151.588 Y149.152 E0.03137
G1 X151.249 Y149.497 E0.03137
G1 X150.91 Y149.843 E0.03137
G1 X150.571 Y150.189 E0.03137
G1 X150.232 Y150.534 E0.03137
G1 X149.893 Y150.88 E0.03137
G1 X149.554 Y151.226 E0.03137
G1 X149.215 Y151.571 E0.03137
G1 X148.876 Y151.917 E0.03137
G1 X148.537 Y152.262 E0.03137
G1 X147.859 Y152.954 E0.06275
G1 X147.52 Y153.299 E0.03137
G1 X147.181 Y153.645 E0.03137
G1 X146.842 Y153.991 E0.03137
G1 X146.503 Y154.336 E0.03137
G1 X146.164 Y154.682 E0.03137
G1 X145.948 Y154.902 E0.01999
G1 X141.355 Y154.902 E0.29765
G1 X141.116 Y154.664 E0.02186
G1 X140.787 Y154.334 E0.0302
G1 X140.71 Y154.252 E0.00727
G1 X140.658 Y154.187 E0.00544
G1 X140.61 Y154.118 E0.00544
G1 X140.567 Y154.045 E0.00545
G1 X140.529 Y153.97 E0.00546
G1 X140.497 Y153.892 E0.00545
G1 X140.47 Y153.813 E0.00544
G1 X140.45 Y153.731 E0.00545
G1 X140.435 Y153.648 E0.00545
G1 X140.426 Y153.565 E0.00545
G1 X140.422 Y153.453 E0.00726
G1 X140.422 Y137.645 E1.02438
G1 X141.938 Y137.645 E0.09824
G1 X142.222 Y138.057 E0.03242
G1 X142.48 Y138.432 E0.02952
G1 X142.762 Y138.789 E0.02952
G1 X143.045 Y139.147 E0.02952
G1 X143.35 Y139.485 E0.02952
G1 X143.656 Y139.823 E0.02952
G1 X143.983 Y140.14 E0.02952
G1 X144.31 Y140.457 E0.02952
G1 X144.657 Y140.752 E0.02952
G1 X145.004 Y141.047 E0.02952
G1 X145.37 Y141.318 E0.02952
G1 X145.736 Y141.59 E0.02952
G1 X146.118 Y141.836 E0.02952
G1 X146.501 Y142.083 E0.02952
G1 X146.9 Y142.304 E0.02952
G1 X147.298 Y142.525 E0.02952
G1 X147.71 Y142.719 E0.02952
G1 X148.122 Y142.914 E0.02952
G1 X148.546 Y143.08 E0.02952
G1 X148.97 Y143.247 E0.02952
G1 X149.404 Y143.385 E0.02952
G1 X149.838 Y143.524 E0.02952
G1 X150.28 Y143.633 E0.02952
G1 X150.722 Y143.743 E0.02952
G1 X151.171 Y143.823 E0.02952
G1 X151.619 Y143.903 E0.02951
G1 X152.072 Y143.953 E0.02951
G1 X152.525 Y144.004 E0.02952
G1 X152.98 Y144.024 E0.02952
G1 X153.422 Y144.044 E0.02869
G1 X154.048 Y143.509 F9000
G1 F1500
G1 X154.048 Y147.409 E0.25275
G1 X153.666 Y147.799 E0.03533
G1 X153.327 Y148.144 E0.03137
G1 X152.988 Y148.49 E0.03137
G1 X152.649 Y148.836 E0.03137
G1 X152.31 Y149.181 E0.03137
G1 X151.971 Y149.527 E0.03137
G1 X151.632 Y149.872 E0.03137
G1 X151.293 Y150.218 E0.03137
G1 X150.954 Y150.564 E0.03137
G1 X150.615 Y150.909 E0.03137
G1 X150.276 Y151.255 E0.03137
G1 X149.937 Y151.601 E0.03137
G1 X149.598 Y151.946 E0.03137
G1 X149.259 Y152.292 E0.03137
G1 X148.92 Y152.638 E0.03137
G1 X148.242 Y153.329 E0.06275
G1 X147.903 Y153.674 E0.03137
G1 X147.564 Y154.02 E0.03137
G1 X147.225 Y154.366 E0.03137
G1 X146.886 Y154.711 E0.03137
G1 X146.547 Y155.057 E0.03137
G1 X146.173 Y155.438 E0.03457
G1 X141.133 Y155.438 E0.3266
G1 X140.738 Y155.042 E0.03624
G1 X140.401 Y154.706 E0.03082
G1 X140.305 Y154.603 E0.00913
G1 X140.229 Y154.508 E0.00792
G1 X140.159 Y154.407 E0.00792
G1 X140.096 Y154.302 E0.00793
G1 X140.042 Y154.193 E0.00793
G1 X139.995 Y154.08 E0.00792
G1 X139.956 Y153.964 E0.00792
G1 X139.926 Y153.845 E0.00793
G1 X139.904 Y153.725 E0.00793
G1 X139.891 Y153.603 E0.00793
G1 X139.886 Y153.462 E0.00912
G1 X139.886 Y137.109 E1.05971
G1 X140.434 Y137.109 E0.03551
G1 X140.912 Y137.109 E0.03097
G1 X142.245 Y137.109 E0.08639
G1 X142.337 Y137.264 E0.01164
G1 X142.417 Y137.396 E0.01002
G1 X142.663 Y137.753 E0.0281
G1 X142.911 Y138.114 E0.02837
G1 X143.183 Y138.457 E0.02837
G1 X143.454 Y138.801 E0.02837
G1 X143.748 Y139.126 E0.02837
G1 X144.041 Y139.451 E0.02838
G1 X144.355 Y139.755 E0.02838
G1 X144.67 Y140.06 E0.02837
G1 X145.003 Y140.344 E0.02837
G1 X145.337 Y140.627 E0.02837
G1 X145.689 Y140.888 E0.02837
G1 X146.04 Y141.149 E0.02837
G1 X146.409 Y141.386 E0.02838
G1 X146.777 Y141.623 E0.02837
G1 X147.16 Y141.836 E0.02837
G1 X147.542 Y142.048 E0.02838
G1 X147.939 Y142.235 E0.02837
G1 X148.335 Y142.422 E0.02837
G1 X148.742 Y142.582 E0.02837
G1 X149.15 Y142.742 E0.02837
G1 X149.567 Y142.875 E0.02837
G1 X149.984 Y143.008 E0.02838
G1 X150.409 Y143.113 E0.02838
G1 X150.834 Y143.218 E0.02838
G1 X151.265 Y143.295 E0.02837
G1 X151.696 Y143.372 E0.02837
G1 X152.131 Y143.421 E0.02837
G1 X152.566 Y143.469 E0.02838
G1 X153.004 Y143.489 E0.02838
G1 X153.427 Y143.508 E0.02746
G1 X153.597 Y143.509 E0.01102
G1 X153.958 Y143.509 E0.02334
G1 X154.583 Y142.973 F9000
;TYPE:External perimeter
G1 F1500
G1 X154.583 Y147.628 E0.30164
G1 X154.048 Y148.174 E0.04951
G1 X153.709 Y148.519 E0.03137
G1 X153.37 Y148.865 E0.03137
G1 X153.031 Y149.211 E0.03137
G1 X152.692 Y149.556 E0.03137
G1 X152.353 Y149.902 E0.03137
G1 X152.014 Y150.247 E0.03137
G1 X151.675 Y150.593 E0.03137
G1 X151.336 Y150.939 E0.03137
G1 X150.997 Y151.284 E0.03137
G1 X150.658 Y151.63 E0.03137
G1 X150.319 Y151.976 E0.03137
G1 X149.98 Y152.321 E0.03137
G1 X149.641 Y152.667 E0.03137
G1 X149.302 Y153.013 E0.03137
G1 X148.624 Y153.704 E0.06275
G1 X148.285 Y154.049 E0.03137
G1 X147.946 Y154.395 E0.03137
G1 X147.607 Y154.741 E0.03137
G1 X147.268 Y155.086 E0.03137
G1 X146.929 Y155.432 E0.03137
G1 X146.59 Y155.778 E0.03137
G1 X146.398 Y155.973 E0.01777
