; generated by PrusaSlicer 2.4.0+win64 on 2022-03-17 at 01:53:47 UTC

; 

; external perimeters extrusion width = 0.60mm
; perimeters extrusion width = 0.60mm
; infill extrusion width = 0.60mm
; solid infill extrusion width = 0.60mm
; top infill extrusion width = 0.60mm
; first layer extrusion width = 0.60mm

; external perimeters extrusion width = 0.60mm
; perimeters extrusion width = 0.60mm
; infill extrusion width = 0.60mm
; solid infill extrusion width = 0.60mm
; top infill extrusion width = 0.60mm
; first layer extrusion width = 0.60mm

M107
;TYPE:Custom
M104 T0 S150
M190 S100 ; wait for bed temp
M104 T0 S255 ; wait for extruder temp
;M104 T1 S255 ; wait for extruder temp
;M109 T0 S255 ; wait for extruder temp
;M109 T1 S255 ; wait for extruder temp
G28 ;Home
G29;

M109 T0 S255
pick_T0
T0

G1 X20 F3000.0 ; go outside print area
G1 Z0.3 F500
G92 E0.0
G1 Y110.0 E12 F1000.0 ; intro line
G1 Y150.0 E15 F1000.0 ; intro line
G92 E0.0
G21 ; set units to millimeters
G90 ; use absolute coordinates
M83 ; use relative distances for extrusion
T0
M107
;LAYER_CHANGE
;Z:0.3
;HEIGHT:0.3
;
G1 Z.06 F9000
G1 E-3 F3000
G1 X136.859 Y103.377 F9000
G1 E3 F3000
;TYPE:Skirt/Brim
;WIDTH:0.6
G1 F1500
G1 X137.954 Y102.117 E.10821
G1 X140 Y101.464 E.13917
G1 X180 Y101.464 E2.59205
G1 X181.623 Y101.859 E.10821
G1 X182.884 Y102.954 E.10821
G1 X183.536 Y105 E.13917
G1 X183.536 Y145 E2.59205
G1 X183.141 Y146.623 E.10821
G1 X182.046 Y147.883 E.10821
G1 X180 Y148.536 E.13917
G1 X140 Y148.536 E2.59205
G1 X138.378 Y148.141 E.10821
G1 X137.117 Y147.046 E.10821
G1 X136.465 Y145 E.13917
G1 X136.465 Y105 E2.59205
G1 X136.838 Y103.465 E.10238
;WIPE_START
G1 F7200
G1 X137.954 Y102.117 E-.69284
G1 X140 Y101.464 E-.85012
G1 X143.302 Y101.464 E-1.30705
;WIPE_END
G1 E-.15 F3000
G1 X150.768 Y108.232 F9000
G1 X154.029 Y119.234
G1 E3 F3000
;TYPE:External perimeter
G1 F1500
G1 X154.631 Y118.671 E.05338
G1 X155.123 Y118.284 E.04061
G1 X155.85 Y117.812 E.05617
G1 X156.624 Y117.417 E.0563
G1 X157.435 Y117.106 E.0563
G1 X158.274 Y116.881 E.0563
G1 X159.133 Y116.745 E.0563
G1 X160 Y116.699 E.0563
G1 X160.868 Y116.745 E.0563
G1 X161.726 Y116.881 E.0563
G1 X162.563 Y117.105 E.05617
G1 X163.151 Y117.322 E.04061
G1 X163.897 Y117.671 E.05338
G1 X164.642 Y118.119 E.05628
G1 X165.336 Y118.641 E.0563
G1 X165.971 Y119.234 E.0563
G1 X166.541 Y119.89 E.0563
G1 X167.039 Y120.601 E.0563
G1 X167.459 Y121.359 E.05613
G1 X167.697 Y121.893 E.03788
G1 X167.979 Y122.712 E.05611
G1 X168.166 Y123.514 E.05338
G1 X168.255 Y124.134 E.04061
G1 X168.301 Y125 E.05616
G1 X168.255 Y125.868 E.0563
G1 X168.119 Y126.726 E.0563
G1 X167.894 Y127.565 E.05628
G1 X167.601 Y128.334 E.05338
G1 X167.328 Y128.899 E.04061
G1 X166.882 Y129.641 E.05617
G1 X166.359 Y130.335 E.0563
G1 X165.766 Y130.971 E.0563
G1 X165.11 Y131.541 E.0563
G1 X164.399 Y132.039 E.0563
G1 X163.641 Y132.459 E.05613
G1 X163.107 Y132.697 E.03788
G1 X162.288 Y132.979 E.05611
G1 X161.486 Y133.165 E.05338
G1 X160.866 Y133.255 E.04061
G1 X160 Y133.3 E.05616
G1 X159.135 Y133.255 E.05616
G1 X158.514 Y133.165 E.04061
G1 X157.712 Y132.979 E.05338
G1 X156.893 Y132.697 E.05611
G1 X156.359 Y132.459 E.03788
G1 X155.602 Y132.039 E.05613
G1 X154.89 Y131.541 E.0563
G1 X154.234 Y130.971 E.0563
G1 X153.642 Y130.335 E.0563
G1 X153.119 Y129.641 E.0563
G1 X152.672 Y128.897 E.05626
G1 X152.339 Y128.19 E.05066
G1 X152.106 Y127.563 E.04333
G1 X151.881 Y126.726 E.0562
G1 X151.745 Y125.868 E.0563
G1 X151.7 Y125 E.0563
G1 X151.745 Y124.132 E.0563
G1 X151.881 Y123.275 E.05626
G1 X152.075 Y122.535 E.04955
G1 X152.304 Y121.891 E.04429
G1 X152.561 Y121.321 E.04052
G1 X152.961 Y120.601 E.05338
G1 X153.459 Y119.89 E.05628
G1 X153.97 Y119.302 E.05045
G1 X153.863 Y118.658 F9000
G1 E-3 F3000
G1 X151.943 Y117.071 F9000
G1 E3 F3000
;TYPE:Perimeter
G1 F1500
G1 X141.929 Y117.071 E.6489
G1 X141.929 Y106.929 E.65725
G1 X152.071 Y106.929 E.65725
G1 X152.071 Y117.071 E.65725
G1 X152.033 Y117.071 E.00251
G1 X151.471 Y116.536 F9000
G1 F1500
G1 X142.465 Y116.536 E.58366
G1 X142.465 Y107.464 E.58783
G1 X151.536 Y107.464 E.58783
G1 X151.536 Y116.51 E.58617
G1 X151 Y116 F9000
;TYPE:External perimeter
G1 F1500
G1 X143 Y116 E.51841
G1 X143 Y108 E.51841
G1 X151 Y108 E.51841
G1 X151 Y115.91 E.51258
G1 X151.156 Y116.579 F9000
G1 E-3 F3000
G1 X158.629 Y115.74 F9000
G1 E3 F3000
;TYPE:Perimeter
G1 F1500
G1 X158.051 Y115.832 E.03789
G1 X157.104 Y116.086 E.06358
G1 X156.188 Y116.437 E.06358
G1 X155.314 Y116.883 E.06358
G1 X154.499 Y117.412 E.06296
G1 X153.932 Y117.858 E.04674
G1 X153.257 Y118.49 E.05992
G1 X152.614 Y119.229 E.0635
G1 X152.052 Y120.032 E.06349
G1 X151.602 Y120.84 E.05992
G1 X151.309 Y121.492 E.04632
G1 X151.051 Y122.219 E.05004
G1 X150.831 Y123.054 E.05594
G1 X150.74 Y123.629 E.03768
G1 X141.571 Y123.629 E.59416
G1 X141.571 Y106.571 E1.10535
G1 X158.629 Y106.571 E1.10535
G1 X158.629 Y115.65 E.58833
G1 X159.165 Y115.793 F9000
G1 F1500
G1 X160.958 Y115.887 E.11638
G1 X161.905 Y116.037 E.06215
G1 X162.839 Y116.287 E.06263
G1 X163.433 Y116.503 E.04097
G1 X164.011 Y116.76 E.04098
G1 X164.856 Y117.229 E.06263
G1 X165.642 Y117.779 E.06215
G1 X166.366 Y118.408 E.06215
G1 X167.02 Y119.11 E.06215
G1 X167.601 Y119.882 E.06263
G1 X167.932 Y120.412 E.0405
G1 X168.371 Y121.273 E.06263
G1 X168.715 Y122.168 E.06215
G1 X168.963 Y123.095 E.06215
G1 X169.021 Y123.457 E.02377
G1 X168.716 Y123.516 E.02009
G1 X168.502 Y122.585 E.06195
G1 X168.199 Y121.703 E.06042
G1 X167.936 Y121.113 E.04184
G1 X167.494 Y120.317 E.059
G1 X166.973 Y119.57 E.05901
G1 X166.367 Y118.871 E.05994
G1 X165.692 Y118.239 E.05994
G1 X164.954 Y117.681 E.05994
G1 X164.162 Y117.204 E.05995
G1 X163.358 Y116.827 E.05754
G1 X162.725 Y116.594 E.04367
G1 X161.838 Y116.356 E.05956
G1 X160.924 Y116.212 E.05994
G1 X160 Y116.163 E.05994
G1 X159.077 Y116.212 E.05994
G1 X158.163 Y116.356 E.05994
G1 X157.27 Y116.596 E.05994
G1 X156.406 Y116.927 E.05994
G1 X155.582 Y117.347 E.05994
G1 X154.811 Y117.848 E.05956
G1 X154.281 Y118.265 E.04367
G1 X153.643 Y118.862 E.05665
G1 X153.037 Y119.559 E.05989
G1 X152.507 Y120.316 E.05989
G1 X152.081 Y121.08 E.05665
G1 X151.807 Y121.691 E.04342
G1 X151.563 Y122.377 E.04716
G1 X151.356 Y123.165 E.05275
G1 X151.212 Y124.076 E.05981
G1 X151.163 Y125 E.05994
G1 X151.212 Y125.924 E.05994
G1 X151.359 Y126.852 E.06088
G1 X151.615 Y127.801 E.06374
G1 X151.318 Y127.892 E.02011
G1 X151.192 Y127.526 E.02511
G1 X150.975 Y126.585 E.06256
G1 X150.885 Y125.932 E.04271
G1 X150.794 Y124.164 E.11471
G1 X141.036 Y124.164 E.63235
G1 X141.036 Y106.036 E1.17477
G1 X159.165 Y106.036 E1.17477
G1 X159.165 Y115.703 E.62646
G1 E-3 F3000
G1 X164.189 Y119.639 F9000
G1 X164.374 Y119.788
G1 X164.553 Y119.944
G1 X164.726 Y120.106
G1 X164.894 Y120.274
G1 X165.056 Y120.447
G1 X165.212 Y120.627
G1 X165.362 Y120.811
G1 X165.504 Y121.001
G1 X165.641 Y121.195
G1 X165.77 Y121.395
G1 X165.892 Y121.598
G1 X166.008 Y121.806
G1 X166.115 Y122.017
G1 X166.216 Y122.233
G1 X166.308 Y122.451
G1 X166.394 Y122.673
G1 X170.2 Y132.929
G1 E3 F3000
G1 F1500
G1 X178.071 Y132.929 E.51007
G1 X178.071 Y143.071 E.65725
G1 X167.929 Y143.071 E.65725
G1 X167.929 Y132.929 E.65725
G1 X170.11 Y132.929 E.14135
G1 X169.6 Y133.464 F9000
G1 F1500
G1 X177.536 Y133.464 E.51424
G1 X177.536 Y142.536 E.58783
G1 X168.465 Y142.536 E.58783
G1 X168.465 Y133.464 E.58783
G1 X169.51 Y133.464 E.06776
G1 X169 Y134 F9000
;TYPE:External perimeter
G1 F1500
G1 X177 Y134 E.51841
G1 X177 Y142 E.51841
G1 X169 Y142 E.51841
G1 X169 Y134.09 E.51258
G1 X168.845 Y133.42 F9000
G1 E-3 F3000
G1 X171.516 Y126.371 F9000
G1 E3 F3000
;TYPE:Perimeter
G1 F1500
G1 X178.429 Y126.371 E.448
G1 X178.429 Y143.429 E1.10535
G1 X161.371 Y143.429 E1.10535
G1 X161.371 Y134.264 E.59386
G1 X161.684 Y134.219 E.02048
G1 X162.585 Y134.01 E.05992
G1 X163.5 Y133.694 E.06272
G1 X164.12 Y133.419 E.04395
G1 X164.967 Y132.949 E.0628
G1 X165.771 Y132.386 E.06358
G1 X166.511 Y131.742 E.06358
G1 X167.18 Y131.025 E.06358
G1 X167.771 Y130.241 E.06357
G1 X168.271 Y129.408 E.06296
G1 X168.585 Y128.759 E.04674
G1 X168.915 Y127.895 E.05992
G1 X169.169 Y126.949 E.06349
G1 X169.26 Y126.371 E.03789
G1 X171.426 Y126.371 E.14033
G1 X169.899 Y125.836 F9000
G1 F1500
G1 X178.965 Y125.836 E.58747
G1 X178.965 Y143.964 E1.17477
G1 X160.836 Y143.964 E1.17477
G1 X160.836 Y134.207 E.63229
G1 X159.042 Y134.113 E.11638
G1 X158.499 Y134.027 E.03568
G1 X158.546 Y133.711 E.02068
G1 X159.082 Y133.789 E.03509
G1 X160 Y133.837 E.05956
G1 X160.918 Y133.789 E.05956
G1 X161.585 Y133.692 E.04368
G1 X162.437 Y133.494 E.05665
G1 X163.304 Y133.196 E.05941
G1 X163.88 Y132.939 E.04092
G1 X164.683 Y132.494 E.05946
G1 X165.441 Y131.963 E.05994
G1 X166.139 Y131.357 E.05994
G1 X166.77 Y130.68 E.05994
G1 X167.326 Y129.941 E.05994
G1 X167.8 Y129.153 E.05956
G1 X168.093 Y128.547 E.04368
G1 X168.405 Y127.73 E.05665
G1 X168.644 Y126.837 E.05989
G1 X168.789 Y125.924 E.05994
G1 X168.837 Y125 E.05994
G1 X168.789 Y124.082 E.05956
G1 X168.712 Y123.546 E.03509
G1 X169.027 Y123.498 E.02068
G1 X169.113 Y124.042 E.03568
G1 X169.207 Y125.836 E.11638
G1 X169.809 Y125.836 E.03899
G1 E-3 F3000
G1 X164.189 Y130.361 F9000
G1 X163.999 Y130.504
G1 X163.805 Y130.64
G1 X163.606 Y130.77
G1 X163.402 Y130.892
G1 X163.194 Y131.007
G1 X162.983 Y131.115
G1 X162.767 Y131.215
G1 X162.549 Y131.308
G1 X162.327 Y131.393
G1 X162.103 Y131.471
G1 X161.876 Y131.54
G1 X161.646 Y131.601
G1 X161.415 Y131.655
G1 X161.182 Y131.7
G1 X160.947 Y131.737
G1 X160.711 Y131.766
G1 X160.475 Y131.787
G1 X160.238 Y131.799
G1 X160 Y131.804
G1 X159.763 Y131.799
G1 X159.526 Y131.787
G1 X159.289 Y131.766
G1 X159.053 Y131.737
G1 X158.819 Y131.7
G1 X158.586 Y131.655
G1 X158.354 Y131.601
G1 X158.125 Y131.54
G1 X157.898 Y131.471
G1 X157.673 Y131.393
G1 X151.996 Y129.434
G1 E3 F3000
G1 F1500
G1 X151.761 Y129.01 E.03141
G1 X151.507 Y128.439 E.0405
G1 X151.323 Y127.907 E.0365
G1 X151.622 Y127.8 E.02057
G1 X151.844 Y128.398 E.04134
G1 X152.204 Y129.162 E.05471
G1 X152.682 Y129.954 E.05995
G1 X153.24 Y130.692 E.05994
G1 X153.872 Y131.367 E.05994
G1 X154.571 Y131.973 E.05994
G1 X155.317 Y132.494 E.05901
G1 X156.114 Y132.936 E.059
G1 X156.703 Y133.198 E.04184
G1 X157.585 Y133.501 E.06042
G1 X158.517 Y133.716 E.06195
G1 X158.457 Y134.02 E.02009
G1 X158.095 Y133.963 E.02377
G1 X157.169 Y133.715 E.06215
G1 X156.273 Y133.371 E.06215
G1 X155.412 Y132.932 E.06263
G1 X154.882 Y132.601 E.0405
G1 X154.11 Y132.019 E.06263
G1 X153.409 Y131.365 E.06215
G1 X152.779 Y130.641 E.06215
G1 X152.229 Y129.856 E.06215
G1 X152.039 Y129.513 E.02538
G1 E-3 F3000
G1 X153.345 Y123.585 F9000
G1 X153.399 Y123.354
G1 X153.46 Y123.125
G1 X153.53 Y122.897
G1 X153.607 Y122.673
G1 X153.692 Y122.451
G1 X153.785 Y122.233
G1 X153.885 Y122.017
G1 X153.993 Y121.806
G1 X154.108 Y121.598
G1 X154.23 Y121.395
G1 X154.36 Y121.195
G1 X154.496 Y121.001
G1 X154.639 Y120.811
G1 X154.788 Y120.627
G1 X154.944 Y120.447
G1 X159.7 Y115.285
G1 E3 F3000
;TYPE:External perimeter
G1 F1500
G1 X161.014 Y115.353 E.08526
G1 X162.017 Y115.512 E.06579
G1 X163 Y115.776 E.06596
G1 X163.634 Y116.006 E.0437
G1 X164.25 Y116.281 E.0437
G1 X165.14 Y116.774 E.06596
G1 X165.972 Y117.357 E.06579
G1 X166.738 Y118.023 E.06579
G1 X167.431 Y118.765 E.06579
G1 X168.043 Y119.578 E.06596
G1 X168.399 Y120.148 E.04353
G1 X168.861 Y121.055 E.06596
G1 X169.225 Y122.003 E.06579
G1 X169.488 Y122.983 E.06579
G1 X169.647 Y123.986 E.06579
G1 X169.716 Y125.3 E.08526
G1 X179.5 Y125.3 E.63406
G1 X179.5 Y144.5 E1.24418
G1 X160.3 Y144.5 E1.24418
G1 X160.3 Y134.715 E.63406
G1 X158.986 Y134.646 E.08526
G1 X157.984 Y134.488 E.06579
G1 X157.003 Y134.225 E.06579
G1 X156.055 Y133.861 E.06579
G1 X155.148 Y133.399 E.06596
G1 X154.578 Y133.043 E.04353
G1 X153.765 Y132.43 E.06596
G1 X153.023 Y131.738 E.06579
G1 X152.357 Y130.972 E.06579
G1 X151.775 Y130.14 E.06579
G1 X151.281 Y129.25 E.06596
G1 X151.008 Y128.636 E.04353
G1 X150.676 Y127.673 E.06596
G1 X150.447 Y126.682 E.06594
G1 X150.351 Y125.983 E.04576
G1 X150.285 Y124.7 E.08323
G1 X140.5 Y124.7 E.63408
G1 X140.5 Y105.5 E1.24418
G1 X159.7 Y105.5 E1.24418
G1 X159.7 Y115.195 E.62823
G1 X159.896 Y115.852 F9000
G1 E-3 F3000
G1 X154.944 Y120.447 F9000
G1 X154.788 Y120.627
G1 X154.639 Y120.811
G1 X154.496 Y121.001
G1 X154.36 Y121.195
G1 X154.23 Y121.395
G1 X154.108 Y121.598
G1 X153.993 Y121.806
G1 X153.885 Y122.017
G1 X153.785 Y122.233
G1 X153.692 Y122.451
G1 X153.607 Y122.673
G1 X153.53 Y122.897
G1 X149.129 Y137.071
G1 E3 F3000
;TYPE:Perimeter
G1 F1500
G1 X149.129 Y140.129 E.19813
G1 X144.871 Y140.129 E.27589
G1 X144.871 Y135.871 E.27589
G1 X149.129 Y135.871 E.27589
G1 X149.129 Y136.981 E.07193
G1 X149.665 Y135.936 F9000
G1 F1500
G1 X149.665 Y140.664 E.30643
G1 X144.336 Y140.664 E.34531
G1 X144.336 Y135.336 E.34531
G1 X149.665 Y135.336 E.34531
G1 X149.665 Y135.846 E.03305
G1 X150.2 Y134.8 F9000
;TYPE:External perimeter
G1 F1500
G1 X150.2 Y141.2 E.41473
G1 X143.8 Y141.2 E.41473
G1 X143.8 Y134.8 E.41473
G1 X150.11 Y134.8 E.4089
G1 X150.045 Y135.379 F9000
G1 E-3 F3000
G1 X147.825 Y136.032 F9000
G1 E3 F3000
;TYPE:Solid infill
;WIDTH:0.628617
G1 F1500
G1 X148.727 Y136.934 E.08712
G1 X148.727 Y137.732 E.05447
G1 X147.268 Y136.273 E.14088
G1 X146.47 Y136.273 E.05447
G1 X148.727 Y138.53 E.21792
G1 X148.727 Y139.328 E.05447
G1 X145.672 Y136.273 E.29495
G1 X145.273 Y136.273 E.02723
G1 X145.273 Y136.672 E.02724
G1 X148.328 Y139.727 E.29494
G1 X147.53 Y139.727 E.05447
G1 X145.273 Y137.47 E.2179
G1 X145.273 Y138.268 E.05447
G1 X146.732 Y139.727 E.14087
G1 X145.934 Y139.727 E.05447
G1 X145.032 Y138.825 E.0871
G1 E-3 F3000
G1 X157.377 Y106.732 F9000
G1 E3 F3000
;WIDTH:0.604024
G1 F1500
G1 X158.227 Y107.582 E.0785
G1 X158.227 Y108.345 E.04983
G1 X156.855 Y106.973 E.12671
G1 X156.092 Y106.973 E.04983
G1 X158.227 Y109.108 E.19718
G1 X158.227 Y109.872 E.04983
G1 X155.329 Y106.973 E.26764
G1 X154.565 Y106.973 E.04983
G1 X158.227 Y110.635 E.33811
G1 X158.227 Y111.398 E.04983
G1 X153.802 Y106.973 E.40857
G1 X153.039 Y106.973 E.04983
G1 X158.227 Y112.161 E.47904
G1 X158.227 Y112.924 E.04983
G1 X152.473 Y107.17 E.53129
G1 X152.473 Y107.933 E.04983
G1 X158.227 Y113.687 E.53129
G1 X158.227 Y114.451 E.04983
G1 X152.473 Y108.696 E.53129
G1 X152.473 Y109.46 E.04983
G1 X158.227 Y115.214 E.53129
G1 X158.227 Y115.397 E.01197
G1 X157.968 Y115.438 E.01715
G1 X157.748 Y115.497 E.01489
G1 X152.473 Y110.223 E.48699
G1 X152.473 Y110.986 E.04983
G1 X157.146 Y115.658 E.43142
G1 X156.979 Y115.703 E.01123
G1 X156.58 Y115.856 E.02792
G1 X152.473 Y111.749 E.37921
G1 X152.473 Y112.512 E.04983
G1 X156.029 Y116.068 E.32829
G1 X155.523 Y116.325 E.03706
G1 X152.473 Y113.275 E.28158
G1 X152.473 Y114.039 E.04983
G1 X155.025 Y116.591 E.23565
G1 X154.563 Y116.891 E.03602
G1 X152.473 Y114.802 E.19293
G1 X152.473 Y115.565 E.04983
G1 X154.113 Y117.204 E.15138
G1 X153.686 Y117.541 E.03548
G1 X152.473 Y116.328 E.11195
G1 X152.473 Y117.091 E.04983
G1 X153.29 Y117.908 E.07544
G1 X152.903 Y118.284 E.03524
G1 X152.091 Y117.473 E.07494
G1 X151.328 Y117.473 E.04983
G1 X152.548 Y118.693 E.11263
G1 X152.205 Y119.113 E.03541
G1 X150.565 Y117.473 E.15143
G1 X149.802 Y117.473 E.04983
G1 X151.891 Y119.562 E.19287
G1 X151.711 Y119.818 E.02046
G1 X151.594 Y120.028 E.01569
G1 X149.039 Y117.473 E.23595
G1 X148.276 Y117.473 E.04983
G1 X151.321 Y120.519 E.28122
G1 X151.074 Y121.035 E.03736
G1 X147.512 Y117.473 E.32887
G1 X146.749 Y117.473 E.04983
G1 X150.853 Y121.576 E.37889
G1 X150.656 Y122.142 E.03913
G1 X145.986 Y117.473 E.43115
G1 X145.223 Y117.473 E.04983
G1 X150.497 Y122.747 E.48695
G1 X150.397 Y123.227 E.03202
G1 X150.214 Y123.227 E.01198
G1 X144.46 Y117.473 E.53129
G1 X143.697 Y117.473 E.04983
G1 X149.451 Y123.227 E.53129
G1 X148.688 Y123.227 E.04983
G1 X142.933 Y117.473 E.53129
G1 X142.17 Y117.473 E.04983
G1 X147.924 Y123.227 E.53129
G1 X147.161 Y123.227 E.04983
G1 X141.973 Y118.039 E.47902
G1 X141.973 Y118.802 E.04983
G1 X146.398 Y123.227 E.40856
G1 X145.635 Y123.227 E.04983
G1 X141.973 Y119.565 E.33809
G1 X141.973 Y120.328 E.04983
G1 X144.872 Y123.227 E.26763
G1 X144.109 Y123.227 E.04983
G1 X141.973 Y121.092 E.19717
G1 X141.973 Y121.855 E.04983
G1 X143.345 Y123.227 E.1267
G1 X142.582 Y123.227 E.04983
G1 X141.732 Y122.377 E.07849
